; generated by PrusaSlicer 2.3.1+win64 on 2021-06-07 at 08:03:37 UTC

; 

; external perimeters extrusion width = 0.45mm
; perimeters extrusion width = 0.45mm
; infill extrusion width = 0.45mm
; solid infill extrusion width = 0.45mm
; top infill extrusion width = 0.40mm
; first layer extrusion width = 0.70mm

M73 P0 R3
M201 X9000 Y9000 Z500 E10000 ; sets maximum accelerations, mm/sec^2
M203 X500 Y500 Z12 E120 ; sets maximum feedrates, mm/sec
M204 P2000 R1500 T2000 ; sets acceleration (P, T) and retract acceleration (R), mm/sec^2
M205 X10.00 Y10.00 Z0.20 E2.50 ; sets the jerk limits, mm/sec
M205 S0 T0 ; sets the minimum extruding and travel feed rate, mm/sec
M107
;TYPE:Custom
M862.3 P "MK2S" ; printer model check
M862.1 P0.4 ; nozzle diameter check
M115 U3.2.3 ; tell printer latest fw version
G90 ; use absolute coordinates
M83 ; extruder relative mode
M204 S2000 T1500 ; MK2 firmware only supports the old M204 format
M104 S215 ; set extruder temp
M140 S60 ; set bed temp
M190 S60 ; wait for bed temp
M109 S215 ; wait for extruder temp
G28 W ; home all without mesh bed level
G80 ; mesh bed leveling
G1 Y-0.0 F1000.0 ; go outside print area
G92 E0.0
G1 X60.0 E9.0  F1000.0 ; intro line
M73 P1 R3
G1 X100.0 E12.5 F1000.0 ; intro line
G92 E0.0
G21 ; set units to millimeters
G90 ; use absolute coordinates
M83 ; use relative distances for extrusion
M900 K0.05 ; Filament gcode LA 1.5
M900 K30 ; Filament gcode LA 1.0
;LAYER_CHANGE
;Z:0.35
;HEIGHT:0.35
;BEFORE_LAYER_CHANGE
G92 E0.0
;0.35


M73 P3 R3
G1 E-0.10000 F2100.000
G1 Z0.400 F4800.000
;AFTER_LAYER_CHANGE
;0.35
G1 X83.334 Y82.977
G1 Z0.350
G1 E0.10000 F2100.000
;TYPE:Skirt
;WIDTH:0.7
G1 F900.000
G1 X84.883 Y80.821 E0.24135
G1 X85.528 Y80.168 E0.08342
G1 X86.813 Y79.100 E0.15199
M73 P4 R3
G1 X88.043 Y78.312 E0.13284
G1 X89.211 Y77.767 E0.11715
G1 X90.053 Y77.475 E0.08100
G1 X91.016 Y77.276 E0.08945
G1 X92.004 Y77.209 E0.09005
G1 X93.281 Y77.323 E0.11659
G1 X94.524 Y77.663 E0.11719
G1 X95.682 Y78.214 E0.11659
G1 X96.730 Y78.964 E0.11719
G1 X97.628 Y79.889 E0.11719
G1 X98.345 Y80.951 E0.11659
G1 X98.866 Y82.130 E0.11719
G1 X99.169 Y83.383 E0.11719
G1 X99.250 Y84.443 E0.09669
G1 X99.250 Y125.543 E3.73723
M73 P6 R3
G1 X99.110 Y126.958 E0.12923
G1 X98.698 Y128.318 E0.12923
G1 X98.028 Y129.571 E0.12923
G1 X97.126 Y130.670 E0.12923
G1 X96.028 Y131.571 E0.12923
G1 X94.774 Y132.241 E0.12923
G1 X93.414 Y132.654 E0.12923
G1 X92.000 Y132.793 E0.12923
G1 X90.364 Y132.606 E0.14968
G1 X88.701 Y132.030 E0.16009
G1 X87.575 Y131.417 E0.11659
G1 X85.801 Y130.099 E0.20089
G1 X85.021 Y129.301 E0.10152
G1 X83.597 Y127.468 E0.21106
G1 X82.589 Y125.420 E0.20751
G1 X82.185 Y124.196 E0.11719
G1 X81.820 Y122.002 E0.20223
M73 P7 R3
G1 X81.751 Y121.088 E0.08342
G1 X81.750 Y89.000 E2.91772
M73 P8 R3
G1 X82.005 Y86.571 E0.22204
G1 X82.388 Y85.161 E0.13284
G1 X83.310 Y83.032 E0.21106
G1 X83.869 Y83.299 F4800.000
G1 F900.000
G1 X85.339 Y81.250 E0.22935
G1 X85.945 Y80.634 E0.07858
G1 X87.187 Y79.602 E0.14680
G1 X88.301 Y78.882 E0.12064
G1 X90.196 Y78.084 E0.18695
G1 X91.092 Y77.896 E0.08320
G1 X92.005 Y77.834 E0.08320
G1 X93.187 Y77.941 E0.10798
G1 X94.326 Y78.256 E0.10740
G1 X95.396 Y78.770 E0.10798
G1 X96.352 Y79.464 E0.10740
G1 X97.170 Y80.316 E0.10740
M73 P9 R3
G1 X97.826 Y81.306 E0.10798
G1 X98.294 Y82.391 E0.10740
G1 X98.562 Y83.547 E0.10798
G1 X98.625 Y84.447 E0.08204
G1 X98.625 Y125.543 E3.73684
M73 P10 R3
G1 X98.497 Y126.839 E0.11834
G1 X98.121 Y128.078 E0.11777
G1 X97.507 Y129.226 E0.11834
G1 X96.681 Y130.231 E0.11834
G1 X95.680 Y131.052 E0.11777
G1 X94.532 Y131.665 E0.11834
G1 X93.286 Y132.042 E0.11834
G1 X91.997 Y132.168 E0.11777
M73 P11 R3
G1 X90.478 Y131.991 E0.13904
G1 X88.917 Y131.443 E0.15044
G1 X87.889 Y130.875 E0.10683
G1 X86.178 Y129.598 E0.19412
G1 X85.480 Y128.876 E0.09127
G1 X84.111 Y127.110 E0.20326
G1 X83.152 Y125.146 E0.19874
G1 X82.778 Y123.985 E0.11086
G1 X82.438 Y121.910 E0.19117
G1 X82.376 Y121.074 E0.07627
G1 X82.375 Y89.000 E2.91647
M73 P12 R3
G1 X82.620 Y86.681 E0.21206
G1 X82.970 Y85.388 E0.12179
G1 X83.846 Y83.354 E0.20130
;WIPE_START
G1 F3840.000
G1 X83.951 Y83.205 E-0.09500
;WIPE_END
G1 E-0.00500 F2100.000
G1 Z0.750 F4800.000
G1 X90.523 Y87.499
M73 P13 R3
G1 Z0.350
G1 E0.10000 F2100.000
;TYPE:Perimeter
G1 F900.000
G1 X90.829 Y87.559 E0.02835
G1 X90.825 Y122.457 E3.17331
M73 P14 R3
G1 X90.532 Y122.523 E0.02732
G1 X90.379 Y122.197 E0.03275
G1 X90.175 Y120.908 E0.11867
G1 X90.175 Y89.074 E2.89462
M73 P15 R3
G1 X90.304 Y88.051 E0.09375
G1 X90.501 Y87.554 E0.04857
;WIPE_START
G1 F3840.000
G1 X90.684 Y87.557 E-0.09500
;WIPE_END
G1 E-0.00500 F2100.000
G1 Z0.750 F4800.000
G1 X91.459 Y85.373
G1 Z0.350
G1 E0.10000 F2100.000
;TYPE:External perimeter
G1 F450.000
G1 X91.450 Y122.579 E3.38315
M73 P18 R3
G1 X91.482 Y123.591 E0.09205
G1 X91.540 Y124.058 E0.04286
G1 X91.470 Y124.617 E0.05117
G1 X90.945 Y124.239 E0.05886
G1 X90.248 Y123.387 E0.10004
G1 X89.776 Y122.382 E0.10101
G1 X89.550 Y120.957 E0.13120
G1 X89.550 Y89.035 E2.90266
M73 P21 R2
G1 X89.694 Y87.894 E0.10450
G1 X90.105 Y86.855 E0.10164
G1 X90.733 Y85.933 E0.10148
G1 X91.412 Y85.410 E0.07788
G1 X91.361 Y85.760 F4800.000
G1 X91.104 Y86.050
;TYPE:Gap fill
;WIDTH:0.448972
G1 F600.000
G1 X90.742 Y87.223 E0.06679
;WIPE_START
G1 F3840.000
G1 X90.796 Y87.048 E-0.09500
;WIPE_END
G1 E-0.00500 F2100.000
G1 Z0.750 F4800.000
G1 X90.701 Y122.805
G1 Z0.350
G1 E0.10000 F2100.000
;WIDTH:0.372742
G1 F600.000
G1 X91.026 Y123.633 E0.03853
;WIDTH:0.364315
G1 X91.181 Y124.000 E0.01676
M106 S84.15
;LAYER_CHANGE
;Z:0.65
;HEIGHT:0.3
;BEFORE_LAYER_CHANGE
G92 E0.0
;0.65


;WIPE_START
G1 F3840.000
G1 X91.110 Y123.832 E-0.09500
;WIPE_END
G1 E-0.00500 F2100.000
G1 Z0.750 F4800.000
;AFTER_LAYER_CHANGE
;0.65
M104 S210 ; set temperature
G1 X91.004 Y86.651
M73 P22 R2
G1 Z0.650
G1 E0.10000 F2100.000
;TYPE:Perimeter
;WIDTH:0.45
G1 F1699
G1 X91.004 Y123.597 E1.77697
G1 X90.626 Y123.141 E0.02849
G1 X90.206 Y122.249 E0.04741
G1 X89.996 Y120.922 E0.06465
G1 X89.996 Y89.063 E1.53231
M73 P23 R2
G1 X90.130 Y88.006 E0.05121
G1 X90.498 Y87.075 E0.04818
G1 X90.844 Y86.600 E0.02827
G1 X90.947 Y86.633 E0.00520
G1 X91.389 Y85.514 F4800.000
G1 F1699
G1 X91.389 Y124.480 E1.87412
M73 P24 R2
G1 X90.999 Y124.196 E0.02323
G1 X90.298 Y123.349 E0.05286
G1 X89.834 Y122.364 E0.05239
G1 X89.611 Y120.952 E0.06875
G1 X89.611 Y89.038 E1.53493
G1 X89.753 Y87.910 E0.05472
M73 P25 R2
G1 X90.158 Y86.888 E0.05286
G1 X90.804 Y85.999 E0.05286
G1 X91.343 Y85.552 E0.03366
G1 X91.775 Y84.813 F4800.000
;TYPE:External perimeter
G1 F900.000
G1 X91.775 Y125.237 E1.94424
M73 P26 R2
G1 X90.733 Y124.479 E0.06198
G1 X89.970 Y123.558 E0.05755
G1 X89.462 Y122.478 E0.05737
G1 X89.225 Y120.982 E0.07285
G1 X89.225 Y89.014 E1.53756
M73 P27 R2
G1 X89.377 Y87.813 E0.05823
G1 X89.817 Y86.700 E0.05755
G1 X90.521 Y85.733 E0.05754
G1 X91.442 Y84.970 E0.05755
M73 P28 R2
G1 X91.721 Y84.839 E0.01479
G1 X91.652 Y85.194 F4800.000
G1 X90.769 Y87.031
;TYPE:Gap fill
;WIDTH:0.265103
G1 F1200.000
G1 X90.739 Y87.186 E0.00395
;WIDTH:0.314803
G1 X90.709 Y87.341 E0.00493
;WIDTH:0.364503
G1 X90.680 Y87.497 E0.00591
;WIDTH:0.414203
G1 X90.650 Y87.652 E0.00689
;WIDTH:0.463904
G1 X90.621 Y87.807 E0.00787
;WIDTH:0.513604
G1 X90.591 Y87.962 E0.00885
;WIDTH:0.563304
G1 X90.561 Y88.117 E0.00983
;WIDTH:0.608454
G1 X90.522 Y88.747 E0.04285
G1 X90.112 Y89.658 F4800.000
;TYPE:Solid infill
;WIDTH:0.453977
G1 F1200.000
G1 X90.715 Y89.055 E0.04142
G1 X90.715 Y89.606 E0.02677
G1 X90.285 Y90.035 E0.02949
G1 X90.285 Y90.586 E0.02677
G1 X90.715 Y90.157 E0.02949
G1 X90.715 Y90.708 E0.02677
G1 X90.285 Y91.137 E0.02949
G1 X90.285 Y91.688 E0.02677
G1 X90.715 Y91.259 E0.02949
G1 X90.715 Y91.810 E0.02677
G1 X90.285 Y92.239 E0.02949
G1 X90.285 Y92.790 E0.02677
G1 X90.715 Y92.361 E0.02949
G1 X90.715 Y92.912 E0.02677
G1 X90.285 Y93.341 E0.02949
G1 X90.285 Y93.892 E0.02677
G1 X90.715 Y93.463 E0.02949
G1 X90.715 Y94.014 E0.02677
G1 X90.285 Y94.443 E0.02949
G1 X90.285 Y94.994 E0.02677
G1 X90.715 Y94.565 E0.02949
G1 X90.715 Y95.116 E0.02677
G1 X90.285 Y95.545 E0.02949
G1 X90.285 Y96.096 E0.02677
G1 X90.715 Y95.667 E0.02949
G1 X90.715 Y96.218 E0.02677
G1 X90.285 Y96.647 E0.02949
G1 X90.285 Y97.198 E0.02677
G1 X90.715 Y96.769 E0.02949
G1 X90.715 Y97.320 E0.02677
G1 X90.285 Y97.749 E0.02949
G1 X90.285 Y98.300 E0.02677
G1 X90.715 Y97.871 E0.02949
G1 X90.715 Y98.422 E0.02677
G1 X90.285 Y98.851 E0.02949
G1 X90.285 Y99.402 E0.02677
G1 X90.715 Y98.972 E0.02949
G1 X90.715 Y99.523 E0.02677
G1 X90.285 Y99.953 E0.02949
G1 X90.285 Y100.504 E0.02677
G1 X90.715 Y100.074 E0.02949
G1 X90.715 Y100.625 E0.02677
G1 X90.285 Y101.055 E0.02949
G1 X90.285 Y101.606 E0.02677
G1 X90.715 Y101.176 E0.02949
G1 X90.715 Y101.727 E0.02677
G1 X90.285 Y102.156 E0.02949
G1 X90.285 Y102.707 E0.02677
G1 X90.715 Y102.278 E0.02949
G1 X90.715 Y102.829 E0.02677
G1 X90.285 Y103.258 E0.02949
G1 X90.285 Y103.809 E0.02677
G1 X90.715 Y103.380 E0.02949
G1 X90.715 Y103.931 E0.02677
G1 X90.285 Y104.360 E0.02949
M73 P29 R2
G1 X90.285 Y104.911 E0.02677
G1 X90.715 Y104.482 E0.02949
G1 X90.715 Y105.033 E0.02677
G1 X90.285 Y105.462 E0.02949
G1 X90.285 Y106.013 E0.02677
G1 X90.715 Y105.584 E0.02949
G1 X90.715 Y106.135 E0.02677
G1 X90.285 Y106.564 E0.02949
G1 X90.285 Y107.115 E0.02677
G1 X90.715 Y106.686 E0.02949
G1 X90.715 Y107.237 E0.02677
G1 X90.285 Y107.666 E0.02949
G1 X90.285 Y108.217 E0.02677
G1 X90.715 Y107.788 E0.02949
G1 X90.715 Y108.339 E0.02677
G1 X90.285 Y108.768 E0.02949
G1 X90.285 Y109.319 E0.02677
G1 X90.715 Y108.890 E0.02949
G1 X90.715 Y109.441 E0.02677
G1 X90.285 Y109.870 E0.02949
G1 X90.285 Y110.421 E0.02677
G1 X90.715 Y109.992 E0.02949
G1 X90.715 Y110.543 E0.02677
G1 X90.285 Y110.972 E0.02949
G1 X90.285 Y111.523 E0.02677
G1 X90.715 Y111.094 E0.02949
G1 X90.715 Y111.645 E0.02677
G1 X90.285 Y112.074 E0.02949
G1 X90.285 Y112.625 E0.02677
G1 X90.715 Y112.196 E0.02949
G1 X90.715 Y112.747 E0.02677
G1 X90.285 Y113.176 E0.02949
G1 X90.285 Y113.727 E0.02677
G1 X90.715 Y113.298 E0.02949
G1 X90.715 Y113.849 E0.02677
G1 X90.285 Y114.278 E0.02949
G1 X90.285 Y114.829 E0.02677
G1 X90.715 Y114.400 E0.02949
G1 X90.715 Y114.951 E0.02677
G1 X90.285 Y115.380 E0.02949
G1 X90.285 Y115.931 E0.02677
G1 X90.715 Y115.502 E0.02949
G1 X90.715 Y116.053 E0.02677
G1 X90.285 Y116.482 E0.02949
G1 X90.285 Y117.033 E0.02677
G1 X90.715 Y116.604 E0.02949
G1 X90.715 Y117.155 E0.02677
G1 X90.285 Y117.584 E0.02949
G1 X90.285 Y118.135 E0.02677
G1 X90.715 Y117.706 E0.02949
G1 X90.715 Y118.256 E0.02677
G1 X90.285 Y118.686 E0.02949
G1 X90.285 Y119.237 E0.02677
G1 X90.715 Y118.807 E0.02949
G1 X90.715 Y119.358 E0.02677
G1 X90.285 Y119.788 E0.02949
G1 X90.285 Y120.339 E0.02677
G1 X90.715 Y119.909 E0.02949
G1 X90.715 Y120.460 E0.02677
G1 X90.132 Y121.042 E0.04000
G1 X90.527 Y121.221 F4800.000
;TYPE:Gap fill
;WIDTH:0.523902
M73 P30 R2
G1 F1200.000
G1 X90.645 Y122.729 E0.08670
M106 S170.85
;LAYER_CHANGE
;Z:0.95
;HEIGHT:0.3
;BEFORE_LAYER_CHANGE
G92 E0.0
;0.95


;WIPE_START
G1 F3840.000
G1 X90.631 Y122.547 E-0.09500
;WIPE_END
G1 E-0.00500 F2100.000
G1 Z1.050 F4800.000
;AFTER_LAYER_CHANGE
;0.95
G1 X91.004 Y86.651
G1 Z0.950
G1 E0.10000 F2100.000
;TYPE:Perimeter
;WIDTH:0.45
G1 F1694
G1 X91.004 Y123.597 E1.77697
M73 P31 R2
G1 X90.626 Y123.141 E0.02849
G1 X90.206 Y122.249 E0.04741
G1 X89.996 Y120.922 E0.06465
G1 X89.996 Y89.063 E1.53231
G1 X90.130 Y88.006 E0.05121
G1 X90.498 Y87.075 E0.04818
G1 X90.844 Y86.600 E0.02827
G1 X90.947 Y86.633 E0.00520
G1 X91.389 Y85.514 F4800.000
G1 F1694
G1 X91.389 Y124.480 E1.87412
M73 P32 R2
G1 X90.999 Y124.196 E0.02323
G1 X90.298 Y123.349 E0.05286
G1 X89.834 Y122.364 E0.05239
G1 X89.611 Y120.952 E0.06875
G1 X89.611 Y89.038 E1.53493
M73 P33 R2
G1 X89.753 Y87.910 E0.05472
G1 X90.158 Y86.888 E0.05286
G1 X90.804 Y85.999 E0.05286
G1 X91.343 Y85.552 E0.03366
G1 X91.775 Y84.813 F4800.000
;TYPE:External perimeter
G1 F900.000
G1 X91.775 Y125.237 E1.94424
M73 P34 R2
G1 X90.733 Y124.479 E0.06198
G1 X89.970 Y123.558 E0.05755
G1 X89.462 Y122.478 E0.05737
G1 X89.225 Y120.982 E0.07285
G1 X89.225 Y89.014 E1.53756
M73 P36 R2
G1 X89.377 Y87.813 E0.05823
G1 X89.817 Y86.700 E0.05755
G1 X90.521 Y85.733 E0.05754
G1 X91.442 Y84.970 E0.05755
G1 X91.721 Y84.839 E0.01479
G1 X91.652 Y85.194 F4800.000
G1 X90.769 Y87.031
;TYPE:Gap fill
;WIDTH:0.265103
G1 F1200.000
G1 X90.739 Y87.186 E0.00395
;WIDTH:0.314803
G1 X90.709 Y87.341 E0.00493
;WIDTH:0.364503
G1 X90.680 Y87.497 E0.00591
;WIDTH:0.414203
G1 X90.650 Y87.652 E0.00689
;WIDTH:0.463904
G1 X90.621 Y87.807 E0.00787
;WIDTH:0.513604
G1 X90.591 Y87.962 E0.00885
;WIDTH:0.563304
G1 X90.561 Y88.117 E0.00983
;WIDTH:0.608454
G1 X90.522 Y88.747 E0.04285
G1 X90.888 Y89.676 F4800.000
;TYPE:Solid infill
;WIDTH:0.454038
G1 F1200.000
G1 X90.286 Y89.074 E0.04136
G1 X90.285 Y89.624 E0.02674
G1 X90.715 Y90.053 E0.02949
G1 X90.715 Y90.604 E0.02678
G1 X90.285 Y90.175 E0.02949
G1 X90.285 Y90.726 E0.02678
G1 X90.715 Y91.155 E0.02949
G1 X90.715 Y91.706 E0.02678
G1 X90.285 Y91.277 E0.02949
G1 X90.285 Y91.828 E0.02678
G1 X90.715 Y92.257 E0.02949
G1 X90.715 Y92.808 E0.02678
G1 X90.285 Y92.379 E0.02949
G1 X90.285 Y92.930 E0.02678
G1 X90.715 Y93.360 E0.02949
G1 X90.715 Y93.911 E0.02678
G1 X90.285 Y93.481 E0.02949
G1 X90.285 Y94.032 E0.02678
G1 X90.715 Y94.462 E0.02949
G1 X90.715 Y95.013 E0.02678
G1 X90.285 Y94.584 E0.02949
G1 X90.285 Y95.135 E0.02678
G1 X90.715 Y95.564 E0.02949
G1 X90.715 Y96.115 E0.02678
G1 X90.285 Y95.686 E0.02949
G1 X90.285 Y96.237 E0.02678
G1 X90.715 Y96.666 E0.02949
G1 X90.715 Y97.217 E0.02678
G1 X90.285 Y96.788 E0.02949
G1 X90.285 Y97.339 E0.02678
G1 X90.715 Y97.768 E0.02949
G1 X90.715 Y98.319 E0.02678
G1 X90.285 Y97.890 E0.02949
G1 X90.285 Y98.441 E0.02678
G1 X90.715 Y98.870 E0.02949
G1 X90.715 Y99.421 E0.02678
G1 X90.285 Y98.992 E0.02949
G1 X90.285 Y99.543 E0.02678
G1 X90.715 Y99.972 E0.02949
G1 X90.715 Y100.523 E0.02678
G1 X90.285 Y100.094 E0.02949
M73 P37 R2
G1 X90.285 Y100.645 E0.02678
G1 X90.715 Y101.074 E0.02949
G1 X90.715 Y101.625 E0.02678
G1 X90.285 Y101.196 E0.02949
G1 X90.285 Y101.747 E0.02678
G1 X90.715 Y102.176 E0.02949
G1 X90.715 Y102.727 E0.02678
G1 X90.285 Y102.298 E0.02949
G1 X90.285 Y102.849 E0.02678
G1 X90.715 Y103.279 E0.02949
G1 X90.715 Y103.830 E0.02678
G1 X90.285 Y103.400 E0.02949
G1 X90.285 Y103.952 E0.02678
G1 X90.715 Y104.381 E0.02949
G1 X90.715 Y104.932 E0.02678
G1 X90.285 Y104.503 E0.02949
G1 X90.285 Y105.054 E0.02678
G1 X90.715 Y105.483 E0.02949
G1 X90.715 Y106.034 E0.02678
G1 X90.285 Y105.605 E0.02949
G1 X90.285 Y106.156 E0.02678
G1 X90.715 Y106.585 E0.02949
G1 X90.715 Y107.136 E0.02678
G1 X90.285 Y106.707 E0.02949
G1 X90.285 Y107.258 E0.02678
G1 X90.715 Y107.687 E0.02949
G1 X90.715 Y108.238 E0.02678
G1 X90.285 Y107.809 E0.02949
G1 X90.285 Y108.360 E0.02678
G1 X90.715 Y108.789 E0.02949
G1 X90.715 Y109.340 E0.02678
G1 X90.285 Y108.911 E0.02949
G1 X90.285 Y109.462 E0.02678
G1 X90.715 Y109.891 E0.02949
G1 X90.715 Y110.442 E0.02678
G1 X90.285 Y110.013 E0.02949
G1 X90.285 Y110.564 E0.02678
G1 X90.715 Y110.993 E0.02949
G1 X90.715 Y111.544 E0.02678
G1 X90.285 Y111.115 E0.02949
G1 X90.285 Y111.666 E0.02678
G1 X90.715 Y112.095 E0.02949
G1 X90.715 Y112.647 E0.02678
G1 X90.285 Y112.217 E0.02949
G1 X90.285 Y112.768 E0.02678
G1 X90.715 Y113.198 E0.02949
G1 X90.715 Y113.749 E0.02678
G1 X90.285 Y113.320 E0.02949
G1 X90.285 Y113.871 E0.02678
G1 X90.715 Y114.300 E0.02949
G1 X90.715 Y114.851 E0.02678
G1 X90.285 Y114.422 E0.02949
G1 X90.285 Y114.973 E0.02678
G1 X90.715 Y115.402 E0.02949
G1 X90.715 Y115.953 E0.02678
G1 X90.285 Y115.524 E0.02949
G1 X90.285 Y116.075 E0.02678
G1 X90.715 Y116.504 E0.02949
G1 X90.715 Y117.055 E0.02678
G1 X90.285 Y116.626 E0.02949
G1 X90.285 Y117.177 E0.02678
M73 P38 R2
G1 X90.715 Y117.606 E0.02949
G1 X90.715 Y118.157 E0.02678
G1 X90.285 Y117.728 E0.02949
G1 X90.285 Y118.279 E0.02678
G1 X90.715 Y118.708 E0.02949
G1 X90.715 Y119.259 E0.02678
G1 X90.285 Y118.830 E0.02949
G1 X90.285 Y119.381 E0.02678
G1 X90.715 Y119.810 E0.02949
G1 X90.715 Y120.361 E0.02678
G1 X90.285 Y119.932 E0.02949
G1 X90.285 Y120.483 E0.02678
G1 X90.879 Y121.077 E0.04081
G1 X90.527 Y121.221 F4800.000
;TYPE:Gap fill
;WIDTH:0.523902
G1 F1200.000
G1 X90.645 Y122.729 E0.08670
