; generated by PrusaSlicer 2.3.1+win64 on 2021-06-08 at 11:25:40 UTC

; 

; external perimeters extrusion width = 0.45mm
; perimeters extrusion width = 0.45mm
; infill extrusion width = 0.45mm
; solid infill extrusion width = 0.45mm
; top infill extrusion width = 0.40mm
; first layer extrusion width = 0.70mm

M73 P0 R76
M201 X9000 Y9000 Z500 E10000 ; sets maximum accelerations, mm/sec^2
M203 X500 Y500 Z12 E120 ; sets maximum feedrates, mm/sec
M204 P2000 R1500 T2000 ; sets acceleration (P, T) and retract acceleration (R), mm/sec^2
M205 X10.00 Y10.00 Z0.20 E2.50 ; sets the jerk limits, mm/sec
M205 S0 T0 ; sets the minimum extruding and travel feed rate, mm/sec
M107
;TYPE:Custom
M862.3 P "MK2S" ; printer model check
M862.1 P0.4 ; nozzle diameter check
M115 U3.2.3 ; tell printer latest fw version
G90 ; use absolute coordinates
M83 ; extruder relative mode
M204 S2000 T1500 ; MK2 firmware only supports the old M204 format
M104 S215 ; set extruder temp
M140 S60 ; set bed temp
M190 S60 ; wait for bed temp
M109 S215 ; wait for extruder temp
G28 W ; home all without mesh bed level
G80 ; mesh bed leveling
G1 Y-0.0 F1000.0 ; go outside print area
G92 E0.0
G1 X60.0 E9.0  F1000.0 ; intro line
G1 X100.0 E12.5 F1000.0 ; intro line
G92 E0.0
G21 ; set units to millimeters
G90 ; use absolute coordinates
M83 ; use relative distances for extrusion
M900 K0.05 ; Filament gcode LA 1.5
M900 K30 ; Filament gcode LA 1.0
;LAYER_CHANGE
;Z:0.35
;HEIGHT:0.35
;BEFORE_LAYER_CHANGE
G92 E0.0
;0.35


G1 E-0.10000 F2100.000
G1 Z0.400 F4800.000
;AFTER_LAYER_CHANGE
;0.35
G1 X97.100 Y71.096
G1 Z0.350
G1 E0.10000 F2100.000
;TYPE:Skirt
;WIDTH:0.7
G1 F900.000
G1 X97.973 Y68.695 E0.23230
G1 X98.556 Y67.621 E0.11116
G1 X99.784 Y65.940 E0.18923
G1 X100.502 Y65.193 E0.09428
G1 X101.813 Y64.100 E0.15520
G1 X102.826 Y63.427 E0.11056
G1 X104.489 Y62.630 E0.16768
G1 X105.373 Y62.300 E0.08583
G1 X106.300 Y62.088 E0.08643
G1 X108.083 Y61.808 E0.16416
G1 X108.932 Y61.751 E0.07738
G1 X141.007 Y61.750 E2.91651
G1 X143.455 Y62.009 E0.22386
G1 X144.901 Y62.412 E0.13645
G1 X146.323 Y62.980 E0.13932
G1 X147.093 Y63.374 E0.07859
G1 X149.342 Y65.030 E0.25398
G1 X150.973 Y66.908 E0.22619
G1 X151.753 Y68.175 E0.13525
G1 X152.419 Y69.598 E0.14290
G1 X152.707 Y70.399 E0.07738
G1 X153.181 Y73.004 E0.24080
G1 X153.250 Y73.992 E0.09005
G1 X153.249 Y136.120 E5.64924
M73 P0 R75
G1 X152.900 Y138.904 E0.25513
G1 X152.027 Y141.305 E0.23230
G1 X151.422 Y142.413 E0.11478
G1 X150.126 Y144.166 E0.19828
G1 X149.373 Y144.918 E0.09669
G1 X147.747 Y146.223 E0.18961
G1 X146.843 Y146.744 E0.09488
G1 X144.849 Y147.629 E0.19843
G1 X143.897 Y147.878 E0.08945
G1 X141.851 Y148.200 E0.18834
G1 X108.774 Y148.246 E3.00767
G1 X106.063 Y147.892 E0.24860
G1 X103.683 Y147.022 E0.23042
G1 X102.564 Y146.410 E0.11598
G1 X100.791 Y145.090 E0.20094
G1 X100.059 Y144.347 E0.09488
G1 X98.722 Y142.664 E0.19544
G1 X98.227 Y141.783 E0.09186
G1 X97.336 Y139.741 E0.20262
G1 X97.105 Y138.805 E0.08764
G1 X96.769 Y136.526 E0.20947
G1 X96.751 Y73.874 E5.69698
G1 X97.093 Y71.156 E0.24907
G1 X97.710 Y71.234 F4800.000
G1 F900.000
G1 X98.552 Y68.930 E0.22302
G1 X99.105 Y67.922 E0.10452
G1 X100.351 Y66.238 E0.19051
G1 X101.035 Y65.555 E0.08787
G1 X102.570 Y64.318 E0.17926
G1 X103.409 Y63.828 E0.08839
G1 X105.299 Y62.980 E0.18833
G1 X106.177 Y62.744 E0.08262
G1 X107.989 Y62.453 E0.16690
G1 X108.983 Y62.375 E0.09069
G1 X141.006 Y62.375 E2.91185
G1 X143.344 Y62.624 E0.21380
G1 X144.677 Y62.995 E0.12582
G1 X146.772 Y63.911 E0.20788
G1 X148.935 Y65.505 E0.24430
G1 X150.484 Y67.297 E0.21544
G1 X151.203 Y68.472 E0.12524
G1 X152.112 Y70.590 E0.20957
G1 X152.567 Y73.127 E0.23439
G1 X152.625 Y73.996 E0.07916
G1 X152.624 Y136.108 E5.64783
G1 X152.289 Y138.773 E0.24426
G1 X151.448 Y141.070 E0.22239
G1 X150.891 Y142.083 E0.10510
G1 X149.640 Y143.772 E0.19108
G1 X148.950 Y144.457 E0.08845
G1 X147.372 Y145.722 E0.18386
G1 X146.556 Y146.189 E0.08550
G1 X144.628 Y147.044 E0.19177
G1 X143.761 Y147.268 E0.08147
G1 X141.746 Y147.583 E0.18540
G1 X108.803 Y147.622 E2.99555
G1 X106.201 Y147.283 E0.23860
G1 X103.918 Y146.443 E0.22121
G1 X102.894 Y145.879 E0.10625
G1 X101.192 Y144.611 E0.19302
G1 X100.529 Y143.935 E0.08608
G1 X99.233 Y142.303 E0.18949
G1 X98.789 Y141.510 E0.08262
G1 X97.927 Y139.538 E0.19578
G1 X97.718 Y138.680 E0.08031
G1 X97.391 Y136.455 E0.20443
G1 X97.376 Y73.886 E5.68943
G1 X97.703 Y71.293 E0.23759
;WIPE_START
G1 F3840.000
G1 X97.765 Y71.121 E-0.09500
;WIPE_END
G1 E-0.00500 F2100.000
G1 Z0.750 F4800.000
G1 X104.061 Y121.781
G1 Z0.350
G1 E0.10000 F2100.000
;TYPE:External perimeter
;WIDTH:0.246071
G1 F450.000
G1 X104.082 Y122.042 E0.00652
;WIDTH:0.248873
G1 X104.148 Y122.685 E0.01635
G1 X104.529 Y123.286 E0.01800
;WIPE_START
G1 F3840.000
G1 X104.431 Y123.132 E-0.09500
;WIPE_END
G1 E-0.00500 F2100.000
G1 Z0.750 F4800.000
G1 X105.799 Y127.003
G1 Z0.350
G1 E0.10000 F2100.000
;TYPE:Perimeter
;WIDTH:0.7
G1 F900.000
G1 X107.305 Y127.600 E0.14728
G1 X108.887 Y127.800 E0.14496
G1 X141.142 Y127.800 E2.93292
M73 P1 R75
G1 X143.081 Y127.493 E0.17852
G1 X144.201 Y126.964 E0.11262
G1 X144.200 Y135.887 E0.81136
G1 X144.086 Y136.792 E0.08300
G1 X143.792 Y137.535 E0.07261
G1 X143.322 Y138.181 E0.07261
G1 X142.707 Y138.690 E0.07262
G1 X142.011 Y139.018 E0.07000
G1 X140.858 Y139.200 E0.10607
G1 X109.113 Y139.200 E2.88657
G1 X108.208 Y139.086 E0.08300
G1 X107.465 Y138.792 E0.07261
G1 X106.819 Y138.322 E0.07261
G1 X106.310 Y137.707 E0.07262
G1 X105.982 Y137.011 E0.07000
G1 X105.800 Y135.858 E0.10607
G1 X105.799 Y127.063 E0.79972
;WIPE_START
G1 F3840.000
G1 X105.972 Y127.125 E-0.09500
;WIPE_END
G1 E-0.00500 F2100.000
G1 Z0.750 F4800.000
G1 X105.164 Y125.759
G1 Z0.350
G1 E0.10000 F2100.000
G1 F900.000
G1 X106.006 Y126.413 E0.09694
G1 X107.462 Y126.990 E0.14239
G1 X108.926 Y127.175 E0.13420
G1 X141.092 Y127.175 E2.92488
G1 X142.895 Y126.889 E0.16592
G1 X144.327 Y126.213 E0.14404
G1 X144.836 Y125.765 E0.06169
G1 X144.825 Y135.926 E0.92398
G1 X144.696 Y136.949 E0.09375
G1 X144.344 Y137.838 E0.08697
G1 X143.782 Y138.612 E0.08697
G1 X143.045 Y139.222 E0.08698
G1 X142.196 Y139.621 E0.08526
G1 X140.908 Y139.825 E0.11863
G1 X109.074 Y139.825 E2.89462
G1 X108.051 Y139.696 E0.09375
G1 X107.162 Y139.344 E0.08697
G1 X106.388 Y138.782 E0.08697
G1 X105.778 Y138.045 E0.08698
G1 X105.379 Y137.196 E0.08526
G1 X105.175 Y135.908 E0.11863
G1 X105.165 Y125.819 E0.91731
;WIPE_START
G1 F3840.000
G1 X105.314 Y125.925 E-0.09500
;WIPE_END
G1 E-0.00500 F2100.000
G1 Z0.750 F4800.000
G1 X104.350 Y123.710
G1 Z0.350
G1 E0.10000 F2100.000
;TYPE:External perimeter
G1 F450.000
G1 X105.015 Y124.514 E0.09480
G1 X105.216 Y124.928 E0.04189
G1 X105.582 Y125.293 E0.04701
G1 X106.319 Y125.865 E0.08481
G1 X107.619 Y126.380 E0.12711
G1 X108.965 Y126.550 E0.12344
G1 X141.043 Y126.550 E2.91683
G1 X142.709 Y126.286 E0.15332
G1 X143.980 Y125.686 E0.12788
G1 X144.363 Y125.349 E0.04638
G1 X144.678 Y125.010 E0.04203
G1 X145.389 Y124.005 E0.11195
G1 X145.650 Y124.088 E0.02493
G1 X145.650 Y124.481 E0.03573
G1 X145.598 Y124.947 E0.04270
G1 X145.501 Y125.453 E0.04679
G1 X145.458 Y125.983 E0.04842
G1 X145.450 Y135.965 E0.90766
G1 X145.306 Y137.106 E0.10451
G1 X144.896 Y138.142 E0.10133
G1 X144.241 Y139.043 E0.10133
G1 X143.382 Y139.754 E0.10133
G1 X142.382 Y140.224 E0.10053
G1 X140.957 Y140.450 E0.13119
G1 X109.035 Y140.450 E2.90266
G1 X107.894 Y140.306 E0.10450
G1 X106.858 Y139.896 E0.10133
G1 X105.957 Y139.241 E0.10133
G1 X105.246 Y138.382 E0.10133
G1 X104.776 Y137.382 E0.10053
G1 X104.550 Y135.957 E0.13119
G1 X104.542 Y125.984 E0.90684
M73 P1 R74
G1 X104.500 Y125.454 E0.04835
G1 X104.405 Y124.947 E0.04687
G1 X104.350 Y124.480 E0.04280
G1 X104.350 Y123.770 E0.06449
G1 X104.533 Y124.066 F4800.000
;WIPE_START
G1 F3840.000
G1 X104.472 Y123.907 E-0.09500
;WIPE_END
G1 E-0.00500 F2100.000
G1 Z0.750 F4800.000
G1 X145.643 Y123.718
G1 Z0.350
G1 E0.10000 F2100.000
;WIDTH:0.675802
G1 F450.000
G1 X145.674 Y123.558 E0.01428
;WIDTH:0.627149
G1 X145.704 Y123.397 E0.01313
;WIDTH:0.578496
G1 X145.735 Y123.237 E0.01197
;WIDTH:0.529843
G1 X145.765 Y123.076 E0.01081
;WIDTH:0.48119
G1 X145.796 Y122.916 E0.00966
;WIDTH:0.432538
G1 X145.827 Y122.755 E0.00850
;WIDTH:0.383885
G1 X145.857 Y122.595 E0.00734
;WIDTH:0.335232
G1 X145.888 Y122.434 E0.00619
;WIDTH:0.286579
G1 X145.919 Y122.273 E0.00503
;WIDTH:0.237927
G1 X145.921 Y122.253 E0.00048
;WIDTH:0.232832
G1 X145.938 Y121.993 E0.00599
;WIPE_START
G1 F3840.000
G1 X145.926 Y122.176 E-0.09500
;WIPE_END
G1 E-0.00500 F2100.000
G1 Z0.750 F4800.000
G1 X145.122 Y125.022
G1 Z0.350
G1 E0.10000 F2100.000
;TYPE:Gap fill
;WIDTH:0.188535
G1 F600.000
G1 X145.009 Y125.147 E0.00278
G1 X145.122 Y125.022 F4800.000
;WIDTH:0.172591
G1 F600.000
G1 X145.186 Y124.982 E0.00107
G1 X145.208 Y125.065 E0.00121
G1 X145.196 Y125.183 E0.00168
;WIPE_START
G1 F3840.000
G1 X145.208 Y125.065 E-0.06161
G1 X145.191 Y125.003 E-0.03339
;WIPE_END
G1 E-0.00500 F2100.000
G1 Z0.750 F4800.000
G1 X144.013 Y128.516
G1 Z0.350
G1 E0.10000 F2100.000
;TYPE:Solid infill
;WIDTH:0.705155
G1 F600.000
G1 X143.371 Y127.874 E0.08322
G1 X143.220 Y127.945 E0.01531
G1 X142.643 Y128.036 E0.05358
G1 X143.732 Y129.125 E0.14118
G1 X143.732 Y130.016 E0.08168
G1 X141.874 Y128.158 E0.24090
G1 X141.093 Y128.268 E0.07230
G1 X143.732 Y130.907 E0.34214
G1 X143.732 Y131.798 E0.08168
G1 X140.202 Y128.268 E0.45766
G1 X139.311 Y128.268 E0.08169
G1 X143.732 Y132.689 E0.57318
G1 X143.732 Y133.580 E0.08168
G1 X138.420 Y128.268 E0.68870
G1 X137.529 Y128.268 E0.08169
G1 X143.732 Y134.471 E0.80422
G1 X143.732 Y135.362 E0.08168
G1 X136.638 Y128.268 E0.91974
G1 X135.747 Y128.268 E0.08169
G1 X143.687 Y136.209 E1.02950
G1 X143.628 Y136.675 E0.04307
G1 X143.524 Y136.937 E0.02585
G1 X134.856 Y128.268 E1.12393
G1 X133.965 Y128.268 E0.08169
G1 X143.220 Y137.524 E1.20003
G1 X142.978 Y137.857 E0.03779
G1 X142.806 Y138.000 E0.02052
G1 X133.074 Y128.268 E1.26177
G1 X132.183 Y128.268 E0.08169
G1 X142.285 Y138.371 E1.30980
G1 X141.871 Y138.565 E0.04192
G1 X141.627 Y138.604 E0.02265
G1 X131.292 Y128.268 E1.34005
G1 X130.401 Y128.268 E0.08169
G1 X140.858 Y138.726 E1.35584
G1 X139.973 Y138.732 E0.08116
G1 X129.510 Y128.268 E1.35660
G1 X128.619 Y128.268 E0.08169
M73 P2 R74
G1 X139.082 Y138.732 E1.35660
G1 X138.191 Y138.732 E0.08169
G1 X127.728 Y128.268 E1.35660
G1 X126.837 Y128.268 E0.08169
G1 X137.300 Y138.732 E1.35660
G1 X136.409 Y138.732 E0.08169
G1 X125.946 Y128.268 E1.35660
G1 X125.055 Y128.268 E0.08169
G1 X135.518 Y138.732 E1.35660
G1 X134.627 Y138.732 E0.08169
G1 X124.164 Y128.268 E1.35660
G1 X123.273 Y128.268 E0.08169
G1 X133.736 Y138.732 E1.35660
G1 X132.845 Y138.732 E0.08169
G1 X122.382 Y128.268 E1.35660
G1 X121.491 Y128.268 E0.08169
G1 X131.954 Y138.732 E1.35660
G1 X131.063 Y138.732 E0.08169
G1 X120.600 Y128.268 E1.35660
G1 X119.709 Y128.268 E0.08169
G1 X130.172 Y138.732 E1.35660
G1 X129.281 Y138.732 E0.08169
G1 X118.818 Y128.268 E1.35660
G1 X117.927 Y128.268 E0.08169
G1 X128.390 Y138.732 E1.35660
G1 X127.499 Y138.732 E0.08169
G1 X117.036 Y128.268 E1.35660
G1 X116.144 Y128.268 E0.08169
G1 X126.608 Y138.732 E1.35660
G1 X125.717 Y138.732 E0.08169
G1 X115.253 Y128.268 E1.35660
G1 X114.362 Y128.268 E0.08169
G1 X124.826 Y138.732 E1.35660
G1 X123.935 Y138.732 E0.08169
G1 X113.471 Y128.268 E1.35660
G1 X112.580 Y128.268 E0.08169
G1 X123.044 Y138.732 E1.35660
G1 X122.153 Y138.732 E0.08169
G1 X111.689 Y128.268 E1.35660
G1 X110.798 Y128.268 E0.08169
G1 X121.262 Y138.732 E1.35660
G1 X120.371 Y138.732 E0.08169
G1 X109.907 Y128.268 E1.35660
G1 X109.016 Y128.268 E0.08169
G1 X119.480 Y138.732 E1.35660
G1 X118.588 Y138.732 E0.08169
G1 X108.020 Y128.163 E1.37032
G1 X107.188 Y128.057 E0.07687
G1 X106.916 Y127.950 E0.02683
G1 X117.697 Y138.732 E1.39792
G1 X116.806 Y138.732 E0.08169
G1 X106.268 Y128.193 E1.36636
G1 X106.268 Y129.084 E0.08169
G1 X115.915 Y138.732 E1.25083
M73 P2 R73
G1 X115.024 Y138.732 E0.08169
G1 X106.268 Y129.975 E1.13530
G1 X106.268 Y130.866 E0.08169
G1 X114.133 Y138.732 E1.01976
G1 X113.242 Y138.732 E0.08169
G1 X106.268 Y131.757 E0.90423
M73 P3 R73
G1 X106.268 Y132.648 E0.08169
G1 X112.351 Y138.732 E0.78870
G1 X111.460 Y138.732 E0.08169
G1 X106.268 Y133.540 E0.67317
G1 X106.268 Y134.431 E0.08169
G1 X110.569 Y138.732 E0.55764
G1 X109.678 Y138.732 E0.08169
G1 X106.268 Y135.322 E0.44211
G1 X106.268 Y135.821 E0.04582
G1 X106.342 Y136.286 E0.04315
G1 X108.736 Y138.680 E0.31038
G1 X108.325 Y138.628 E0.03796
G1 X107.693 Y138.378 E0.06236
G1 X107.144 Y137.979 E0.06224
G1 X106.202 Y137.037 E0.12208
;WIPE_START
G1 F3840.000
G1 X106.331 Y137.167 E-0.09500
;WIPE_END
G1 E-0.00500 F2100.000
G1 Z0.750 F4800.000
G1 X145.939 Y88.219
G1 Z0.350
G1 E0.10000 F2100.000
;TYPE:External perimeter
;WIDTH:0.246069
G1 F450.000
G1 X145.877 Y87.436 E0.01956
G1 X145.852 Y87.315 E0.00306
G1 X145.566 Y86.864 E0.01328
;WIDTH:0.248872
G1 X145.471 Y86.714 E0.00450
;WIPE_START
G1 F3840.000
G1 X145.566 Y86.864 E-0.09247
;WIPE_END
G1 E-0.00753 F2100.000
G1 Z0.750 F4800.000
G1 X144.201 Y82.997
G1 Z0.350
G1 E0.10000 F2100.000
;TYPE:Perimeter
;WIDTH:0.7
G1 F900.000
G1 X142.695 Y82.400 E0.14728
G1 X141.113 Y82.200 E0.14496
G1 X108.858 Y82.200 E2.93292
G1 X106.919 Y82.507 E0.17852
G1 X105.799 Y83.036 E0.11262
G1 X105.800 Y74.113 E0.81136
G1 X105.914 Y73.208 E0.08300
G1 X106.208 Y72.465 E0.07261
G1 X106.678 Y71.819 E0.07261
G1 X107.293 Y71.310 E0.07262
G1 X107.989 Y70.982 E0.07000
G1 X109.142 Y70.800 E0.10607
G1 X140.892 Y70.800 E2.88708
G1 X141.792 Y70.914 E0.08248
G1 X142.535 Y71.208 E0.07261
G1 X143.181 Y71.678 E0.07261
G1 X143.690 Y72.293 E0.07262
G1 X144.018 Y72.989 E0.07000
G1 X144.200 Y74.142 E0.10607
G1 X144.201 Y82.937 E0.79972
;WIPE_START
G1 F3840.000
G1 X144.028 Y82.875 E-0.09500
;WIPE_END
G1 E-0.00500 F2100.000
G1 Z0.750 F4800.000
G1 X144.836 Y84.241
G1 Z0.350
G1 E0.10000 F2100.000
G1 F900.000
G1 X143.994 Y83.587 E0.09694
G1 X142.538 Y83.010 E0.14239
G1 X141.074 Y82.825 E0.13420
G1 X108.908 Y82.825 E2.92488
G1 X107.105 Y83.111 E0.16592
G1 X105.673 Y83.787 E0.14404
G1 X105.164 Y84.235 E0.06169
G1 X105.175 Y74.074 E0.92398
G1 X105.304 Y73.051 E0.09375
G1 X105.656 Y72.162 E0.08697
G1 X106.218 Y71.388 E0.08697
G1 X106.955 Y70.778 E0.08698
G1 X107.804 Y70.379 E0.08526
G1 X109.092 Y70.175 E0.11863
G1 X140.932 Y70.176 E2.89513
G1 X141.949 Y70.304 E0.09323
G1 X142.838 Y70.656 E0.08697
G1 X143.612 Y71.218 E0.08697
G1 X144.222 Y71.955 E0.08698
G1 X144.621 Y72.804 E0.08526
G1 X144.825 Y74.092 E0.11863
G1 X144.835 Y84.181 E0.91731
;WIPE_START
G1 F3840.000
G1 X144.686 Y84.075 E-0.09500
;WIPE_END
G1 E-0.00500 F2100.000
G1 Z0.750 F4800.000
G1 X145.650 Y86.290
G1 Z0.350
G1 E0.10000 F2100.000
;TYPE:External perimeter
G1 F450.000
G1 X144.985 Y85.486 E0.09480
G1 X144.784 Y85.072 E0.04189
G1 X144.418 Y84.707 E0.04701
G1 X143.681 Y84.135 E0.08481
G1 X142.381 Y83.620 E0.12711
G1 X141.035 Y83.450 E0.12344
G1 X108.957 Y83.450 E2.91683
G1 X107.291 Y83.714 E0.15332
G1 X106.020 Y84.314 E0.12788
G1 X105.637 Y84.651 E0.04638
G1 X105.322 Y84.990 E0.04203
G1 X104.611 Y85.995 E0.11195
G1 X104.350 Y85.912 E0.02493
G1 X104.350 Y85.519 E0.03573
G1 X104.402 Y85.053 E0.04270
G1 X104.499 Y84.547 E0.04679
G1 X104.542 Y84.017 E0.04842
G1 X104.550 Y74.035 E0.90766
G1 X104.694 Y72.894 E0.10451
G1 X105.104 Y71.858 E0.10133
G1 X105.759 Y70.957 E0.10133
G1 X106.618 Y70.246 E0.10133
G1 X107.618 Y69.776 E0.10053
G1 X109.043 Y69.550 E0.13119
G1 X140.971 Y69.551 E2.90318
G1 X142.106 Y69.694 E0.10399
G1 X143.142 Y70.104 E0.10133
G1 X144.043 Y70.759 E0.10133
G1 X144.754 Y71.618 E0.10133
G1 X145.224 Y72.618 E0.10053
G1 X145.450 Y74.043 E0.13119
G1 X145.458 Y84.016 E0.90684
G1 X145.500 Y84.546 E0.04835
G1 X145.595 Y85.053 E0.04687
G1 X145.650 Y85.520 E0.04280
G1 X145.650 Y86.230 E0.06449
G1 X145.467 Y85.934 F4800.000
;WIPE_START
G1 F3840.000
G1 X145.528 Y86.093 E-0.09500
;WIPE_END
G1 E-0.00500 F2100.000
G1 Z0.750 F4800.000
G1 X104.357 Y86.282
G1 Z0.350
G1 E0.10000 F2100.000
;WIDTH:0.675803
G1 F450.000
G1 X104.326 Y86.442 E0.01428
;WIDTH:0.62715
G1 X104.296 Y86.603 E0.01313
;WIDTH:0.578497
G1 X104.265 Y86.763 E0.01197
;WIDTH:0.529845
G1 X104.235 Y86.924 E0.01081
;WIDTH:0.481192
G1 X104.204 Y87.084 E0.00966
;WIDTH:0.432539
