; generated by PrusaSlicer 2.3.1+win64 on 2021-06-08 at 11:03:55 UTC

; 

; external perimeters extrusion width = 0.45mm
; perimeters extrusion width = 0.45mm
; infill extrusion width = 0.45mm
; solid infill extrusion width = 0.45mm
; top infill extrusion width = 0.40mm
; first layer extrusion width = 0.70mm

M73 P0 R99
M201 X9000 Y9000 Z500 E10000 ; sets maximum accelerations, mm/sec^2
M203 X500 Y500 Z12 E120 ; sets maximum feedrates, mm/sec
M204 P2000 R1500 T2000 ; sets acceleration (P, T) and retract acceleration (R), mm/sec^2
M205 X10.00 Y10.00 Z0.20 E2.50 ; sets the jerk limits, mm/sec
M205 S0 T0 ; sets the minimum extruding and travel feed rate, mm/sec
M107
;TYPE:Custom
M862.3 P "MK2S" ; printer model check
M862.1 P0.4 ; nozzle diameter check
M115 U3.2.3 ; tell printer latest fw version
G90 ; use absolute coordinates
M83 ; extruder relative mode
M204 S2000 T1500 ; MK2 firmware only supports the old M204 format
M104 S215 ; set extruder temp
M140 S60 ; set bed temp
M190 S60 ; wait for bed temp
M109 S215 ; wait for extruder temp
G28 W ; home all without mesh bed level
G80 ; mesh bed leveling
G1 Y-0.0 F1000.0 ; go outside print area
G92 E0.0
G1 X60.0 E9.0  F1000.0 ; intro line
G1 X100.0 E12.5 F1000.0 ; intro line
G92 E0.0
G21 ; set units to millimeters
G90 ; use absolute coordinates
M83 ; use relative distances for extrusion
M900 K0.05 ; Filament gcode LA 1.5
M900 K30 ; Filament gcode LA 1.0
;LAYER_CHANGE
;Z:0.35
;HEIGHT:0.35
;BEFORE_LAYER_CHANGE
G92 E0.0
;0.35


G1 E-0.10000 F2100.000
G1 Z0.400 F4800.000
;AFTER_LAYER_CHANGE
;0.35
G1 X97.100 Y71.096
G1 Z0.350
G1 E0.10000 F2100.000
;TYPE:Skirt
;WIDTH:0.7
G1 F900.000
G1 X97.973 Y68.695 E0.23230
G1 X98.556 Y67.621 E0.11116
G1 X99.784 Y65.940 E0.18923
G1 X100.502 Y65.193 E0.09428
G1 X101.813 Y64.100 E0.15520
G1 X102.826 Y63.427 E0.11056
G1 X104.489 Y62.630 E0.16768
G1 X105.373 Y62.300 E0.08583
G1 X106.300 Y62.088 E0.08643
G1 X108.083 Y61.808 E0.16416
G1 X108.932 Y61.751 E0.07738
G1 X141.007 Y61.750 E2.91651
G1 X143.455 Y62.009 E0.22386
G1 X144.901 Y62.412 E0.13645
G1 X146.323 Y62.980 E0.13932
G1 X147.093 Y63.374 E0.07859
G1 X149.342 Y65.030 E0.25398
G1 X150.973 Y66.908 E0.22619
G1 X151.753 Y68.175 E0.13525
G1 X152.419 Y69.598 E0.14290
G1 X152.707 Y70.399 E0.07738
G1 X153.181 Y73.004 E0.24080
G1 X153.250 Y73.992 E0.09005
G1 X153.249 Y136.120 E5.64924
G1 X152.900 Y138.904 E0.25513
G1 X152.027 Y141.305 E0.23230
G1 X151.422 Y142.413 E0.11478
G1 X150.126 Y144.166 E0.19828
G1 X149.373 Y144.918 E0.09669
G1 X147.747 Y146.223 E0.18961
G1 X146.843 Y146.744 E0.09488
G1 X144.849 Y147.629 E0.19843
G1 X143.897 Y147.878 E0.08945
G1 X141.851 Y148.200 E0.18834
G1 X108.774 Y148.246 E3.00767
G1 X106.063 Y147.892 E0.24860
G1 X103.683 Y147.022 E0.23042
G1 X102.564 Y146.410 E0.11598
G1 X100.791 Y145.090 E0.20094
G1 X100.059 Y144.347 E0.09488
G1 X98.722 Y142.664 E0.19544
G1 X98.227 Y141.783 E0.09186
G1 X97.336 Y139.741 E0.20262
G1 X97.105 Y138.805 E0.08764
G1 X96.769 Y136.526 E0.20947
G1 X96.751 Y73.874 E5.69698
M73 P0 R98
G1 X97.093 Y71.156 E0.24907
G1 X97.710 Y71.234 F4800.000
G1 F900.000
G1 X98.552 Y68.930 E0.22302
G1 X99.105 Y67.922 E0.10452
G1 X100.351 Y66.238 E0.19051
G1 X101.035 Y65.555 E0.08787
G1 X102.570 Y64.318 E0.17926
G1 X103.409 Y63.828 E0.08839
G1 X105.299 Y62.980 E0.18833
G1 X106.177 Y62.744 E0.08262
G1 X107.989 Y62.453 E0.16690
G1 X108.983 Y62.375 E0.09069
G1 X141.006 Y62.375 E2.91185
G1 X143.344 Y62.624 E0.21380
G1 X144.677 Y62.995 E0.12582
G1 X146.772 Y63.911 E0.20788
G1 X148.935 Y65.505 E0.24430
G1 X150.484 Y67.297 E0.21544
G1 X151.203 Y68.472 E0.12524
G1 X152.112 Y70.590 E0.20957
G1 X152.567 Y73.127 E0.23439
G1 X152.625 Y73.996 E0.07916
G1 X152.624 Y136.108 E5.64783
G1 X152.289 Y138.773 E0.24426
G1 X151.448 Y141.070 E0.22239
G1 X150.891 Y142.083 E0.10510
G1 X149.640 Y143.772 E0.19108
G1 X148.950 Y144.457 E0.08845
G1 X147.372 Y145.722 E0.18386
G1 X146.556 Y146.189 E0.08550
G1 X144.628 Y147.044 E0.19177
G1 X143.761 Y147.268 E0.08147
G1 X141.746 Y147.583 E0.18540
G1 X108.803 Y147.622 E2.99555
G1 X106.201 Y147.283 E0.23860
G1 X103.918 Y146.443 E0.22121
G1 X102.894 Y145.879 E0.10625
G1 X101.192 Y144.611 E0.19302
G1 X100.529 Y143.935 E0.08608
G1 X99.233 Y142.303 E0.18949
G1 X98.789 Y141.510 E0.08262
G1 X97.927 Y139.538 E0.19578
G1 X97.718 Y138.680 E0.08031
G1 X97.391 Y136.455 E0.20443
G1 X97.376 Y73.886 E5.68943
G1 X97.703 Y71.293 E0.23759
;WIPE_START
G1 F3840.000
G1 X97.765 Y71.121 E-0.09500
;WIPE_END
G1 E-0.00500 F2100.000
G1 Z0.750 F4800.000
G1 X118.193 Y118.200
G1 Z0.350
G1 E0.10000 F2100.000
;TYPE:Perimeter
G1 F900.000
G1 X131.807 Y118.200 E1.23789
G1 X131.791 Y121.682 E0.31660
G1 X132.711 Y121.506 E0.08512
G1 X133.640 Y121.542 E0.08458
G1 X134.496 Y121.820 E0.08186
G1 X135.240 Y122.292 E0.08010
G1 X135.843 Y122.935 E0.08010
G1 X136.267 Y123.706 E0.08009
G1 X136.486 Y124.560 E0.08009
G1 X136.486 Y125.440 E0.08010
G1 X136.267 Y126.294 E0.08009
G1 X135.843 Y127.065 E0.08009
G1 X135.240 Y127.708 E0.08010
G1 X134.496 Y128.180 E0.08010
G1 X133.658 Y128.452 E0.08010
G1 X132.779 Y128.507 E0.08015
G1 X131.791 Y128.318 E0.09142
G1 X131.807 Y131.800 E0.31659
G1 X118.193 Y131.800 E1.23789
G1 X118.208 Y128.271 E0.32090
G1 X117.663 Y128.451 E0.05223
G1 X116.780 Y128.507 E0.08051
G1 X115.914 Y128.342 E0.08011
G1 X115.117 Y127.967 E0.08011
G1 X114.438 Y127.405 E0.08010
G1 X113.921 Y126.693 E0.08008
G1 X113.596 Y125.874 E0.08010
G1 X113.486 Y125.000 E0.08010
G1 X113.596 Y124.126 E0.08010
G1 X113.921 Y123.307 E0.08010
G1 X114.438 Y122.595 E0.08008
G1 X115.117 Y122.033 E0.08010
G1 X115.914 Y121.658 E0.08011
G1 X116.711 Y121.506 E0.07380
G1 X117.645 Y121.543 E0.08494
G1 X118.208 Y121.729 E0.05399
G1 X118.194 Y118.260 E0.31544
G1 X118.821 Y118.825 F4800.000
G1 F900.000
G1 X131.179 Y118.825 E1.12375
G1 X131.162 Y122.715 E0.35367
G1 X132.103 Y122.258 E0.09512
G1 X132.758 Y122.133 E0.06062
G1 X133.529 Y122.163 E0.07020
G1 X134.228 Y122.390 E0.06681
G1 X134.838 Y122.778 E0.06574
G1 X135.333 Y123.305 E0.06575
G1 X135.682 Y123.938 E0.06573
G1 X135.861 Y124.638 E0.06574
G1 X135.861 Y125.362 E0.06575
G1 X135.682 Y126.062 E0.06574
G1 X135.333 Y126.695 E0.06573
G1 X134.838 Y127.222 E0.06575
G1 X134.228 Y127.610 E0.06574
G1 X133.540 Y127.833 E0.06574
G1 X132.819 Y127.878 E0.06577
G1 X132.103 Y127.742 E0.06624
G1 X131.162 Y127.285 E0.09512
G1 X131.179 Y131.175 E0.35367
G1 X118.821 Y131.175 E1.12375
G1 X118.838 Y127.194 E0.36196
G1 X118.246 Y127.600 E0.06528
G1 X117.543 Y127.833 E0.06729
G1 X116.819 Y127.879 E0.06599
G1 X116.109 Y127.743 E0.06574
G1 X115.455 Y127.435 E0.06575
G1 X114.897 Y126.974 E0.06575
G1 X114.473 Y126.390 E0.06573
G1 X114.206 Y125.717 E0.06574
G1 X114.116 Y125.000 E0.06574
G1 X114.206 Y124.283 E0.06574
G1 X114.473 Y123.610 E0.06574
G1 X114.897 Y123.026 E0.06573
G1 X115.455 Y122.565 E0.06575
G1 X116.109 Y122.257 E0.06575
G1 X116.758 Y122.133 E0.06012
G1 X117.532 Y122.164 E0.07042
G1 X118.246 Y122.400 E0.06836
G1 X118.838 Y122.806 E0.06528
G1 X118.821 Y118.885 E0.35651
G1 X119.448 Y119.450 F4800.000
;TYPE:External perimeter
G1 F450.000
G1 X130.552 Y119.450 E1.00960
G1 X130.535 Y123.015 E0.32417
G1 X130.493 Y123.537 E0.04761
G1 X130.363 Y124.528 E0.09084
G1 X130.350 Y125.000 E0.04297
G1 X130.363 Y125.472 E0.04297
G1 X130.493 Y126.463 E0.09084
G1 X130.535 Y126.985 E0.04761
G1 X130.552 Y130.550 E0.32417
G1 X119.448 Y130.550 E1.00960
G1 X119.464 Y126.985 E0.32416
G1 X119.506 Y126.462 E0.04770
G1 X119.641 Y125.473 E0.09078
G1 X119.650 Y125.000 E0.04301
G1 X119.641 Y124.527 E0.04301
G1 X119.506 Y123.538 E0.09078
G1 X119.464 Y123.015 E0.04770
G1 X119.449 Y119.510 E0.31871
G1 X119.447 Y119.050 F4800.000
;WIPE_START
G1 F3840.000
G1 X119.632 Y119.509 E-0.09500
;WIPE_END
G1 E-0.00500 F2100.000
G1 Z0.750 F4800.000
G1 X118.445 Y123.294
G1 Z0.350
G1 E0.10000 F2100.000
G1 F450.000
G1 X118.795 Y123.759 E0.05299
G1 X118.967 Y124.276 E0.04952
G1 X119.037 Y124.762 E0.04464
G1 X119.037 Y125.238 E0.04330
G1 X118.967 Y125.724 E0.04464
G1 X118.795 Y126.241 E0.04952
G1 X118.445 Y126.706 E0.05299
G1 X117.965 Y127.035 E0.05282
G1 X117.423 Y127.214 E0.05192
G1 X116.859 Y127.250 E0.05147
G1 X116.303 Y127.144 E0.05138
G1 X115.792 Y126.903 E0.05139
G1 X115.357 Y126.543 E0.05139
G1 X115.024 Y126.086 E0.05138
G1 X114.816 Y125.561 E0.05138
G1 X114.746 Y125.000 E0.05139
M73 P1 R98
G1 X114.816 Y124.439 E0.05139
G1 X115.024 Y123.914 E0.05138
G1 X115.357 Y123.457 E0.05138
G1 X115.792 Y123.097 E0.05139
G1 X116.303 Y122.856 E0.05139
G1 X116.805 Y122.760 E0.04645
G1 X117.419 Y122.784 E0.05590
G1 X117.965 Y122.965 E0.05230
G1 X118.395 Y123.260 E0.04736
G1 X118.829 Y123.184 F4800.000
;WIPE_START
G1 F3840.000
G1 X118.509 Y123.402 E-0.09500
;WIPE_END
G1 E-0.00500 F2100.000
G1 Z0.750 F4800.000
G1 X131.356 Y123.509
G1 Z0.350
G1 E0.10000 F2100.000
G1 F450.000
G1 X131.783 Y123.108 E0.05333
G1 X132.301 Y122.857 E0.05233
G1 X132.805 Y122.760 E0.04662
G1 X133.418 Y122.784 E0.05582
G1 X133.960 Y122.960 E0.05177
G1 X134.437 Y123.263 E0.05138
G1 X134.824 Y123.675 E0.05139
G1 X135.096 Y124.170 E0.05138
G1 X135.237 Y124.717 E0.05138
G1 X135.237 Y125.283 E0.05139
G1 X135.096 Y125.830 E0.05138
G1 X134.824 Y126.325 E0.05138
G1 X134.437 Y126.737 E0.05139
G1 X133.960 Y127.040 E0.05138
G1 X133.422 Y127.214 E0.05139
G1 X132.858 Y127.250 E0.05139
G1 X132.301 Y127.143 E0.05156
G1 X131.783 Y126.892 E0.05233
G1 X131.356 Y126.491 E0.05333
G1 X131.095 Y125.981 E0.05208
G1 X130.993 Y125.478 E0.04670
G1 X130.949 Y125.000 E0.04361
G1 X130.993 Y124.522 E0.04361
G1 X131.095 Y124.019 E0.04670
G1 X131.329 Y123.563 E0.04663
G1 X131.205 Y123.139 F4800.000
;WIPE_START
G1 F3840.000
G1 X131.458 Y123.433 E-0.09500
;WIPE_END
G1 E-0.00500 F2100.000
G1 Z0.750 F4800.000
G1 X113.192 Y76.700
G1 Z0.350
G1 E0.10000 F2100.000
;TYPE:Perimeter
G1 F900.000
G1 X136.808 Y76.700 E2.14748
G1 X136.792 Y79.712 E0.27389
G1 X137.557 Y79.514 E0.07188
G1 X138.440 Y79.514 E0.08030
G1 X139.294 Y79.733 E0.08011
G1 X140.065 Y80.157 E0.08008
G1 X140.708 Y80.760 E0.08010
G1 X141.180 Y81.504 E0.08010
G1 X141.452 Y82.342 E0.08010
G1 X141.507 Y83.221 E0.08008
G1 X141.342 Y84.086 E0.08008
G1 X140.967 Y84.883 E0.08012
G1 X140.405 Y85.562 E0.08010
G1 X139.693 Y86.079 E0.08007
G1 X138.874 Y86.404 E0.08011
G1 X138.000 Y86.514 E0.08014
G1 X137.119 Y86.402 E0.08073
G1 X136.798 Y86.272 E0.03148
G1 X136.798 Y93.711 E0.67640
G1 X137.557 Y93.514 E0.07136
G1 X138.440 Y93.514 E0.08030
G1 X139.294 Y93.733 E0.08010
G1 X140.065 Y94.157 E0.08008
G1 X140.708 Y94.760 E0.08010
G1 X141.180 Y95.504 E0.08010
G1 X141.452 Y96.342 E0.08010
G1 X141.507 Y97.221 E0.08009
G1 X141.342 Y98.086 E0.08008
G1 X140.967 Y98.883 E0.08011
G1 X140.405 Y99.562 E0.08010
G1 X139.693 Y100.079 E0.08008
G1 X138.874 Y100.404 E0.08010
G1 X138.000 Y100.514 E0.08014
G1 X137.119 Y100.402 E0.08073
G1 X136.793 Y100.270 E0.03201
G1 X136.808 Y103.300 E0.27550
G1 X128.026 Y103.300 E0.79850
G1 X127.961 Y103.593 E0.02731
G1 X128.812 Y103.993 E0.08552
G1 X130.186 Y105.130 E0.16215
G1 X131.234 Y106.573 E0.16215
G1 X131.891 Y108.231 E0.16215
G1 X132.114 Y110.000 E0.16215
G1 X131.891 Y111.769 E0.16215
G1 X131.234 Y113.427 E0.16215
G1 X130.186 Y114.870 E0.16215
G1 X128.812 Y116.007 E0.16215
G1 X127.198 Y116.766 E0.16215
G1 X125.447 Y117.100 E0.16215
G1 X123.667 Y116.988 E0.16215
G1 X121.971 Y116.437 E0.16215
G1 X120.465 Y115.481 E0.16215
G1 X119.245 Y114.182 E0.16215
G1 X118.386 Y112.619 E0.16215
G1 X117.942 Y110.892 E0.16215
G1 X117.942 Y109.108 E0.16215
G1 X118.386 Y107.381 E0.16215
G1 X119.245 Y105.818 E0.16215
G1 X120.465 Y104.519 E0.16215
G1 X121.960 Y103.570 E0.16094
G1 X121.881 Y103.300 E0.02560
G1 X113.192 Y103.300 E0.79010
G1 X113.207 Y100.270 E0.27550
G1 X112.881 Y100.402 E0.03201
G1 X112.000 Y100.514 E0.08073
G1 X111.126 Y100.404 E0.08014
G1 X110.307 Y100.079 E0.08010
G1 X109.595 Y99.562 E0.08008
G1 X109.033 Y98.883 E0.08010
G1 X108.658 Y98.086 E0.08011
G1 X108.493 Y97.221 E0.08008
G1 X108.548 Y96.342 E0.08009
G1 X108.820 Y95.504 E0.08010
G1 X109.292 Y94.760 E0.08010
G1 X109.935 Y94.157 E0.08010
G1 X110.706 Y93.733 E0.08008
G1 X111.560 Y93.514 E0.08010
G1 X112.443 Y93.514 E0.08030
G1 X113.202 Y93.711 E0.07136
G1 X113.202 Y86.272 E0.67640
G1 X112.881 Y86.402 E0.03148
G1 X112.000 Y86.514 E0.08073
G1 X111.126 Y86.404 E0.08014
G1 X110.307 Y86.079 E0.08011
G1 X109.595 Y85.562 E0.08007
G1 X109.033 Y84.883 E0.08010
G1 X108.658 Y84.086 E0.08012
G1 X108.493 Y83.221 E0.08008
G1 X108.548 Y82.342 E0.08008
G1 X108.820 Y81.504 E0.08010
G1 X109.292 Y80.760 E0.08010
G1 X109.935 Y80.157 E0.08010
G1 X110.706 Y79.733 E0.08008
G1 X111.560 Y79.514 E0.08011
G1 X112.443 Y79.514 E0.08030
G1 X113.208 Y79.712 E0.07188
G1 X113.192 Y76.760 E0.26844
;WIPE_START
G1 F3840.000
G1 X113.375 Y76.760 E-0.09500
;WIPE_END
G1 E-0.00500 F2100.000
G1 Z0.750 F4800.000
G1 X122.239 Y104.133
G1 Z0.350
G1 E0.10000 F2100.000
G1 F450.000
G1 X123.785 Y103.631 E0.14780
G1 X125.407 Y103.529 E0.14779
G1 X127.004 Y103.833 E0.14780
G1 X128.474 Y104.525 E0.14779
G1 X129.727 Y105.561 E0.14779
G1 X130.682 Y106.876 E0.14780
G1 X131.281 Y108.387 E0.14779
G1 X131.484 Y110.000 E0.14780
G1 X131.281 Y111.613 E0.14780
G1 X130.682 Y113.124 E0.14779
G1 X129.727 Y114.439 E0.14780
G1 X128.474 Y115.475 E0.14779
G1 X127.004 Y116.167 E0.14780
G1 X125.407 Y116.471 E0.14779
G1 X123.785 Y116.369 E0.14779
G1 X122.239 Y115.867 E0.14780
G1 X120.867 Y114.996 E0.14780
G1 X119.754 Y113.811 E0.14780
G1 X118.971 Y112.387 E0.14779
G1 X118.567 Y110.813 E0.14779
G1 X118.567 Y109.187 E0.14780
G1 X118.971 Y107.613 E0.14779
G1 X119.754 Y106.189 E0.14779
G1 X120.867 Y105.004 E0.14779
G1 X122.188 Y104.165 E0.14234
G1 X122.507 Y104.703 F4800.000
;TYPE:External perimeter
G1 F450.000
G1 X123.903 Y104.249 E0.13344
G1 X125.368 Y104.157 E0.13344
G1 X126.809 Y104.432 E0.13344
G1 X128.137 Y105.057 E0.13344
G1 X129.268 Y105.992 E0.13344
G1 X130.130 Y107.180 E0.13344
G1 X130.670 Y108.544 E0.13344
G1 X130.854 Y110.000 E0.13344
M73 P1 R97
G1 X130.670 Y111.456 E0.13344
G1 X130.130 Y112.820 E0.13344
G1 X129.268 Y114.008 E0.13344
G1 X128.137 Y114.943 E0.13344
G1 X126.809 Y115.568 E0.13344
G1 X125.368 Y115.843 E0.13344
G1 X123.903 Y115.751 E0.13344
G1 X122.507 Y115.297 E0.13344
G1 X121.268 Y114.511 E0.13344
G1 X120.264 Y113.441 E0.13344
G1 X119.557 Y112.155 E0.13344
G1 X119.192 Y110.734 E0.13344
G1 X119.192 Y109.266 E0.13344
G1 X119.557 Y107.845 E0.13344
G1 X120.264 Y106.559 E0.13344
G1 X121.268 Y105.489 E0.13344
G1 X122.457 Y104.735 E0.12798
G1 X122.541 Y104.304 F4800.000
;WIPE_START
G1 F3840.000
G1 X122.630 Y104.677 E-0.09500
;WIPE_END
G1 E-0.00500 F2100.000
G1 Z0.750 F4800.000
G1 X113.820 Y77.325
G1 Z0.350
G1 E0.10000 F2100.000
;TYPE:Perimeter
G1 F900.000
G1 X136.180 Y77.325 E2.03322
G1 X136.162 Y80.765 E0.31277
G1 X136.928 Y80.323 E0.08043
G1 X137.637 Y80.139 E0.06665
G1 X138.362 Y80.138 E0.06587
G1 X139.062 Y80.318 E0.06574
G1 X139.695 Y80.667 E0.06573
G1 X140.222 Y81.162 E0.06575
G1 X140.610 Y81.772 E0.06574
G1 X140.833 Y82.460 E0.06575
G1 X140.878 Y83.181 E0.06573
G1 X140.743 Y83.891 E0.06573
G1 X140.435 Y84.545 E0.06576
G1 X139.974 Y85.102 E0.06574
G1 X139.390 Y85.527 E0.06572
G1 X138.717 Y85.794 E0.06575
G1 X138.000 Y85.884 E0.06577
G1 X137.278 Y85.793 E0.06613
G1 X136.587 Y85.512 E0.06787
G1 X136.173 Y85.179 E0.04825
G1 X136.173 Y94.758 E0.87100
G1 X136.928 Y94.323 E0.07925
G1 X137.637 Y94.139 E0.06665
G1 X138.361 Y94.138 E0.06586
G1 X139.062 Y94.318 E0.06574
G1 X139.695 Y94.667 E0.06573
G1 X140.222 Y95.162 E0.06575
G1 X140.610 Y95.772 E0.06574
G1 X140.833 Y96.460 E0.06574
G1 X140.878 Y97.181 E0.06574
G1 X140.743 Y97.891 E0.06573
G1 X140.435 Y98.545 E0.06575
G1 X139.974 Y99.103 E0.06575
G1 X139.390 Y99.527 E0.06573
G1 X138.717 Y99.794 E0.06574
G1 X138.000 Y99.884 E0.06577
G1 X137.278 Y99.793 E0.06613
G1 X136.587 Y99.512 E0.06787
G1 X136.162 Y99.171 E0.04955
G1 X136.180 Y102.675 E0.31865
G1 X113.820 Y102.675 E2.03316
G1 X113.838 Y99.171 E0.31865
G1 X113.413 Y99.512 E0.04955
G1 X112.722 Y99.793 E0.06787
G1 X112.000 Y99.884 E0.06613
G1 X111.283 Y99.794 E0.06577
G1 X110.610 Y99.527 E0.06574
G1 X110.026 Y99.103 E0.06573
G1 X109.565 Y98.545 E0.06575
G1 X109.257 Y97.891 E0.06575
G1 X109.122 Y97.181 E0.06573
