; generated by PrusaSlicer 2.3.1+win64 on 2021-06-07 at 09:24:30 UTC

; 

; external perimeters extrusion width = 0.45mm
; perimeters extrusion width = 0.45mm
; infill extrusion width = 0.45mm
; solid infill extrusion width = 0.45mm
; top infill extrusion width = 0.40mm
; first layer extrusion width = 0.70mm

M73 P0 R3
M201 X9000 Y9000 Z500 E10000 ; sets maximum accelerations, mm/sec^2
M203 X500 Y500 Z12 E120 ; sets maximum feedrates, mm/sec
M204 P2000 R1500 T2000 ; sets acceleration (P, T) and retract acceleration (R), mm/sec^2
M205 X10.00 Y10.00 Z0.20 E2.50 ; sets the jerk limits, mm/sec
M205 S0 T0 ; sets the minimum extruding and travel feed rate, mm/sec
M107
;TYPE:Custom
M862.3 P "MK2S" ; printer model check
M862.1 P0.4 ; nozzle diameter check
M115 U3.2.3 ; tell printer latest fw version
G90 ; use absolute coordinates
M83 ; extruder relative mode
M204 S2000 T1500 ; MK2 firmware only supports the old M204 format
M104 S215 ; set extruder temp
M140 S60 ; set bed temp
M190 S60 ; wait for bed temp
M109 S215 ; wait for extruder temp
G28 W ; home all without mesh bed level
G80 ; mesh bed leveling
G1 Y-0.0 F1000.0 ; go outside print area
G92 E0.0
G1 X60.0 E9.0  F1000.0 ; intro line
M73 P1 R3
G1 X100.0 E12.5 F1000.0 ; intro line
G92 E0.0
G21 ; set units to millimeters
G90 ; use absolute coordinates
M83 ; use relative distances for extrusion
M900 K0.05 ; Filament gcode LA 1.5
M900 K30 ; Filament gcode LA 1.0
;LAYER_CHANGE
;Z:0.35
;HEIGHT:0.35
;BEFORE_LAYER_CHANGE
G92 E0.0
;0.35


M73 P3 R3
G1 E-0.10000 F2100.000
G1 Z0.400 F4800.000
;AFTER_LAYER_CHANGE
;0.35
G1 X151.305 Y81.676
G1 Z0.350
G1 E0.10000 F2100.000
;TYPE:Skirt
;WIDTH:0.7
G1 F900.000
G1 X151.976 Y80.423 E0.12923
G1 X152.878 Y79.325 E0.12923
M73 P4 R3
G1 X153.978 Y78.425 E0.12923
G1 X155.232 Y77.756 E0.12923
G1 X156.592 Y77.345 E0.12923
G1 X158.007 Y77.207 E0.12923
G1 X159.642 Y77.395 E0.14968
G1 X161.306 Y77.973 E0.16009
G1 X162.431 Y78.587 E0.11659
G1 X164.204 Y79.905 E0.20089
G1 X164.984 Y80.704 E0.10152
G1 X166.406 Y82.538 E0.21106
G1 X167.413 Y84.586 E0.20752
G1 X167.815 Y85.804 E0.11659
G1 X168.180 Y87.998 E0.20223
G1 X168.249 Y88.912 E0.08342
G1 X168.250 Y121.000 E2.91772
M73 P5 R3
G1 X167.995 Y123.429 E0.22204
M73 P6 R3
G1 X167.612 Y124.839 E0.13284
G1 X166.666 Y127.024 E0.21652
G1 X165.117 Y129.179 E0.24134
G1 X164.472 Y129.832 E0.08342
G1 X163.192 Y130.896 E0.15138
G1 X161.963 Y131.685 E0.13284
G1 X160.789 Y132.233 E0.11775
G1 X159.947 Y132.525 E0.08100
G1 X158.984 Y132.724 E0.08945
G1 X158.003 Y132.791 E0.08945
G1 X156.719 Y132.677 E0.11719
G1 X155.482 Y132.340 E0.11659
G1 X154.318 Y131.786 E0.11719
G1 X153.270 Y131.036 E0.11719
G1 X152.372 Y130.111 E0.11719
G1 X151.652 Y129.043 E0.11719
G1 X151.134 Y127.870 E0.11659
G1 X150.831 Y126.617 E0.11719
G1 X150.750 Y125.557 E0.09669
G1 X150.750 Y84.457 E3.73723
M73 P8 R3
G1 X150.890 Y83.042 E0.12923
G1 X151.287 Y81.733 E0.12438
G1 X151.879 Y81.922 F4800.000
G1 F900.000
G1 X152.493 Y80.774 E0.11834
G1 X153.319 Y79.769 E0.11834
G1 X154.326 Y78.944 E0.11834
G1 X155.474 Y78.332 E0.11834
G1 X156.714 Y77.958 E0.11777
G1 X158.009 Y77.832 E0.11834
G1 X159.528 Y78.010 E0.13904
G1 X161.089 Y78.560 E0.15044
G1 X162.111 Y79.125 E0.10625
M73 P9 R3
G1 X163.822 Y80.402 E0.19412
G1 X164.520 Y81.124 E0.09127
G1 X165.889 Y82.890 E0.20326
G1 X166.848 Y84.854 E0.19874
G1 X167.222 Y86.015 E0.11086
G1 X167.562 Y88.090 E0.19116
G1 X167.624 Y88.926 E0.07627
G1 X167.625 Y121.000 E2.91647
M73 P10 R3
G1 X167.380 Y123.319 E0.21206
G1 X167.032 Y124.606 E0.12122
G1 X166.134 Y126.695 E0.20677
G1 X164.665 Y128.746 E0.22934
G1 X164.055 Y129.366 E0.07916
G1 X162.818 Y130.394 E0.14622
G1 X161.704 Y131.115 E0.12064
G1 X159.810 Y131.914 E0.18696
M73 P11 R3
G1 X158.914 Y132.103 E0.08320
G1 X158.002 Y132.166 E0.08320
G1 X156.825 Y132.061 E0.10740
G1 X155.680 Y131.747 E0.10798
G1 X154.610 Y131.233 E0.10798
G1 X153.648 Y130.536 E0.10798
G1 X152.826 Y129.679 E0.10798
G1 X152.174 Y128.694 E0.10740
G1 X151.706 Y127.609 E0.10740
G1 X151.438 Y126.453 E0.10798
G1 X151.375 Y125.553 E0.08204
G1 X151.375 Y84.457 E3.73684
M73 P12 R3
G1 X151.503 Y83.161 E0.11834
M73 P13 R3
G1 X151.862 Y81.980 E0.11231
;WIPE_START
G1 F3840.000
G1 X151.946 Y81.818 E-0.09500
;WIPE_END
G1 E-0.00500 F2100.000
G1 Z0.750 F4800.000
G1 X159.175 Y87.543
G1 Z0.350
G1 E0.10000 F2100.000
;TYPE:Perimeter
G1 F900.000
G1 X159.468 Y87.477 E0.02732
G1 X159.621 Y87.803 E0.03275
G1 X159.825 Y89.092 E0.11867
G1 X159.825 Y120.926 E2.89462
M73 P14 R3
G1 X159.696 Y121.949 E0.09376
G1 X159.477 Y122.501 E0.05402
G1 X159.171 Y122.442 E0.02835
G1 X159.175 Y87.603 E3.16786
;WIPE_START
M73 P15 R3
G1 F3840.000
G1 X159.343 Y87.531 E-0.09500
;WIPE_END
G1 E-0.00500 F2100.000
G1 Z0.750 F4800.000
G1 X158.530 Y85.383
G1 Z0.350
G1 E0.10000 F2100.000
;TYPE:External perimeter
G1 F450.000
G1 X159.055 Y85.761 E0.05886
G1 X159.752 Y86.613 E0.10004
G1 X160.224 Y87.618 E0.10100
M73 P16 R3
G1 X160.450 Y89.043 E0.13120
G1 X160.450 Y120.965 E2.90266
M73 P18 R3
G1 X160.306 Y122.106 E0.10451
G1 X159.895 Y123.145 E0.10164
G1 X159.267 Y124.067 E0.10148
G1 X158.540 Y124.629 E0.08351
G1 X158.550 Y87.421 E3.38326
M73 P21 R2
G1 X158.518 Y86.409 E0.09205
G1 X158.460 Y85.942 E0.04286
G1 X158.522 Y85.443 E0.04571
G1 X158.765 Y85.707 F4800.000
G1 X158.819 Y86.000
;TYPE:Gap fill
;WIDTH:0.364315
G1 F600.000
G1 X158.974 Y86.367 E0.01676
;WIDTH:0.372742
G1 X159.299 Y87.195 E0.03853
;WIPE_START
G1 F3840.000
G1 X159.232 Y87.025 E-0.09500
;WIPE_END
G1 E-0.00500 F2100.000
G1 Z0.750 F4800.000
G1 X159.258 Y122.777
G1 Z0.350
G1 E0.10000 F2100.000
;WIDTH:0.448972
G1 F600.000
G1 X158.896 Y123.950 E0.06679
M106 S84.15
;LAYER_CHANGE
;Z:0.65
;HEIGHT:0.3
;BEFORE_LAYER_CHANGE
G92 E0.0
;0.65


;WIPE_START
M73 P22 R2
G1 F3840.000
G1 X158.950 Y123.775 E-0.09500
;WIPE_END
G1 E-0.00500 F2100.000
G1 Z0.750 F4800.000
;AFTER_LAYER_CHANGE
;0.65
M104 S210 ; set temperature
G1 X158.996 Y86.403
G1 Z0.650
G1 E0.10000 F2100.000
;TYPE:Perimeter
;WIDTH:0.45
G1 F1794
G1 X159.374 Y86.859 E0.02849
G1 X159.794 Y87.751 E0.04741
G1 X160.004 Y89.078 E0.06465
G1 X160.004 Y120.937 E1.53231
G1 X159.870 Y121.994 E0.05122
G1 X159.502 Y122.925 E0.04817
M73 P23 R2
G1 X159.156 Y123.400 E0.02827
G1 X158.996 Y123.349 E0.00808
G1 X158.996 Y86.463 E1.77409
G1 X158.611 Y85.520 F4800.000
G1 F1794
G1 X159.001 Y85.804 E0.02323
G1 X159.702 Y86.651 E0.05286
G1 X160.166 Y87.636 E0.05239
G1 X160.389 Y89.048 E0.06875
G1 X160.389 Y120.962 E1.53493
M73 P24 R2
G1 X160.247 Y122.090 E0.05473
G1 X159.842 Y123.112 E0.05286
G1 X159.196 Y124.001 E0.05286
G1 X158.611 Y124.486 E0.03655
G1 X158.611 Y85.580 E1.87124
M73 P25 R2
G1 X158.225 Y84.763 F4800.000
;TYPE:External perimeter
G1 F900.000
G1 X159.267 Y85.521 E0.06198
G1 X160.030 Y86.442 E0.05755
G1 X160.538 Y87.522 E0.05737
G1 X160.775 Y89.018 E0.07285
G1 X160.775 Y120.986 E1.53756
M73 P26 R2
G1 X160.623 Y122.187 E0.05824
G1 X160.183 Y123.300 E0.05755
G1 X159.479 Y124.267 E0.05754
G1 X158.558 Y125.030 E0.05755
G1 X158.225 Y125.187 E0.01768
G1 X158.225 Y84.823 E1.94135
M73 P28 R2
G1 X158.461 Y85.086 F4800.000
G1 X159.355 Y87.271
;TYPE:Gap fill
;WIDTH:0.523908
G1 F1200.000
G1 X159.394 Y87.774 E0.02890
;WIDTH:0.557755
G1 X159.434 Y88.277 E0.03103
;WIDTH:0.591603
G1 X159.473 Y88.779 E0.03316
G1 X159.112 Y89.713 F4800.000
;TYPE:Solid infill
;WIDTH:0.453977
G1 F1200.000
G1 X159.715 Y89.110 E0.04142
G1 X159.715 Y89.661 E0.02677
G1 X159.285 Y90.090 E0.02949
G1 X159.285 Y90.641 E0.02677
G1 X159.715 Y90.212 E0.02949
G1 X159.715 Y90.763 E0.02677
G1 X159.285 Y91.192 E0.02949
G1 X159.285 Y91.743 E0.02677
G1 X159.715 Y91.314 E0.02949
G1 X159.715 Y91.865 E0.02677
G1 X159.285 Y92.294 E0.02949
G1 X159.285 Y92.845 E0.02677
G1 X159.715 Y92.416 E0.02949
G1 X159.715 Y92.967 E0.02677
G1 X159.285 Y93.396 E0.02949
G1 X159.285 Y93.947 E0.02677
G1 X159.715 Y93.518 E0.02949
G1 X159.715 Y94.069 E0.02677
G1 X159.285 Y94.498 E0.02949
G1 X159.285 Y95.049 E0.02677
G1 X159.715 Y94.620 E0.02949
G1 X159.715 Y95.171 E0.02677
G1 X159.285 Y95.600 E0.02949
G1 X159.285 Y96.151 E0.02677
G1 X159.715 Y95.722 E0.02949
G1 X159.715 Y96.273 E0.02677
G1 X159.285 Y96.702 E0.02949
G1 X159.285 Y97.253 E0.02677
G1 X159.715 Y96.824 E0.02949
G1 X159.715 Y97.375 E0.02677
G1 X159.285 Y97.804 E0.02949
G1 X159.285 Y98.355 E0.02677
G1 X159.715 Y97.926 E0.02949
G1 X159.715 Y98.477 E0.02677
G1 X159.285 Y98.906 E0.02949
G1 X159.285 Y99.457 E0.02677
G1 X159.715 Y99.028 E0.02949
G1 X159.715 Y99.579 E0.02677
G1 X159.285 Y100.008 E0.02949
G1 X159.285 Y100.559 E0.02677
G1 X159.715 Y100.130 E0.02949
G1 X159.715 Y100.681 E0.02677
G1 X159.285 Y101.110 E0.02949
G1 X159.285 Y101.661 E0.02677
G1 X159.715 Y101.232 E0.02949
G1 X159.715 Y101.783 E0.02677
G1 X159.285 Y102.212 E0.02949
G1 X159.285 Y102.763 E0.02677
G1 X159.715 Y102.334 E0.02949
G1 X159.715 Y102.885 E0.02677
M73 P29 R2
G1 X159.285 Y103.314 E0.02949
G1 X159.285 Y103.865 E0.02677
G1 X159.715 Y103.436 E0.02949
G1 X159.715 Y103.987 E0.02677
G1 X159.285 Y104.416 E0.02949
G1 X159.285 Y104.967 E0.02677
G1 X159.715 Y104.538 E0.02949
G1 X159.715 Y105.089 E0.02677
G1 X159.285 Y105.518 E0.02949
G1 X159.285 Y106.069 E0.02677
G1 X159.715 Y105.640 E0.02949
G1 X159.715 Y106.190 E0.02677
G1 X159.285 Y106.620 E0.02949
G1 X159.285 Y107.171 E0.02677
G1 X159.715 Y106.741 E0.02949
G1 X159.715 Y107.292 E0.02677
G1 X159.285 Y107.722 E0.02949
G1 X159.285 Y108.273 E0.02677
G1 X159.715 Y107.843 E0.02949
G1 X159.715 Y108.394 E0.02677
G1 X159.285 Y108.824 E0.02949
G1 X159.285 Y109.374 E0.02677
G1 X159.715 Y108.945 E0.02949
G1 X159.715 Y109.496 E0.02677
G1 X159.285 Y109.925 E0.02949
G1 X159.285 Y110.476 E0.02677
G1 X159.715 Y110.047 E0.02949
G1 X159.715 Y110.598 E0.02677
G1 X159.285 Y111.027 E0.02949
G1 X159.285 Y111.578 E0.02677
G1 X159.715 Y111.149 E0.02949
G1 X159.715 Y111.700 E0.02677
G1 X159.285 Y112.129 E0.02949
G1 X159.285 Y112.680 E0.02677
G1 X159.715 Y112.251 E0.02949
G1 X159.715 Y112.802 E0.02677
G1 X159.285 Y113.231 E0.02949
G1 X159.285 Y113.782 E0.02677
G1 X159.715 Y113.353 E0.02949
G1 X159.715 Y113.904 E0.02677
G1 X159.285 Y114.333 E0.02949
G1 X159.285 Y114.884 E0.02677
G1 X159.715 Y114.455 E0.02949
G1 X159.715 Y115.006 E0.02677
G1 X159.285 Y115.435 E0.02949
G1 X159.285 Y115.986 E0.02677
G1 X159.715 Y115.557 E0.02949
G1 X159.715 Y116.108 E0.02677
G1 X159.285 Y116.537 E0.02949
G1 X159.285 Y117.088 E0.02677
G1 X159.715 Y116.659 E0.02949
G1 X159.715 Y117.210 E0.02677
G1 X159.285 Y117.639 E0.02949
G1 X159.285 Y118.190 E0.02677
G1 X159.715 Y117.761 E0.02949
G1 X159.715 Y118.312 E0.02677
G1 X159.285 Y118.741 E0.02949
G1 X159.285 Y119.292 E0.02677
G1 X159.715 Y118.863 E0.02949
G1 X159.715 Y119.414 E0.02677
G1 X159.285 Y119.843 E0.02949
M73 P30 R2
G1 X159.285 Y120.394 E0.02677
G1 X159.715 Y119.965 E0.02949
G1 X159.715 Y120.516 E0.02677
G1 X159.116 Y121.114 E0.04111
G1 X159.478 Y121.253 F4800.000
;TYPE:Gap fill
;WIDTH:0.60846
G1 F1200.000
G1 X159.439 Y121.883 E0.04286
;WIDTH:0.563312
G1 X159.409 Y122.038 E0.00983
;WIDTH:0.513612
G1 X159.379 Y122.193 E0.00885
;WIDTH:0.463912
G1 X159.350 Y122.348 E0.00787
;WIDTH:0.414212
G1 X159.320 Y122.503 E0.00689
;WIDTH:0.364512
G1 X159.291 Y122.659 E0.00591
;WIDTH:0.314812
G1 X159.261 Y122.814 E0.00493
;WIDTH:0.265112
G1 X159.231 Y122.969 E0.00395
M106 S170.85
;LAYER_CHANGE
;Z:0.95
;HEIGHT:0.3
;BEFORE_LAYER_CHANGE
G92 E0.0
;0.95


;WIPE_START
G1 F3840.000
G1 X159.261 Y122.814 E-0.08206
;WIPE_END
G1 E-0.01794 F2100.000
G1 Z1.050 F4800.000
;AFTER_LAYER_CHANGE
;0.95
G1 X158.996 Y86.403
G1 Z0.950
G1 E0.10000 F2100.000
;TYPE:Perimeter
;WIDTH:0.45
G1 F1790
G1 X159.374 Y86.859 E0.02849
G1 X159.794 Y87.751 E0.04741
G1 X160.004 Y89.078 E0.06465
G1 X160.004 Y120.937 E1.53231
M73 P31 R2
G1 X159.870 Y121.994 E0.05122
G1 X159.502 Y122.925 E0.04817
G1 X159.156 Y123.400 E0.02827
G1 X158.996 Y123.349 E0.00808
G1 X158.996 Y86.463 E1.77409
G1 X158.611 Y85.520 F4800.000
G1 F1790
G1 X159.001 Y85.804 E0.02323
G1 X159.702 Y86.651 E0.05286
G1 X160.166 Y87.636 E0.05239
G1 X160.389 Y89.048 E0.06875
G1 X160.389 Y120.962 E1.53493
M73 P32 R2
G1 X160.247 Y122.090 E0.05473
G1 X159.842 Y123.112 E0.05286
G1 X159.196 Y124.001 E0.05286
G1 X158.611 Y124.486 E0.03655
G1 X158.611 Y85.580 E1.87124
M73 P33 R2
G1 X158.225 Y84.763 F4800.000
;TYPE:External perimeter
G1 F900.000
G1 X159.267 Y85.521 E0.06198
G1 X160.030 Y86.442 E0.05755
G1 X160.538 Y87.522 E0.05737
G1 X160.775 Y89.018 E0.07285
G1 X160.775 Y120.986 E1.53756
M73 P34 R2
G1 X160.623 Y122.187 E0.05824
G1 X160.183 Y123.300 E0.05755
G1 X159.479 Y124.267 E0.05754
G1 X158.558 Y125.030 E0.05755
G1 X158.225 Y125.187 E0.01768
G1 X158.225 Y84.823 E1.94135
M73 P36 R2
G1 X158.461 Y85.086 F4800.000
G1 X159.355 Y87.271
;TYPE:Gap fill
;WIDTH:0.523908
G1 F1200.000
G1 X159.394 Y87.774 E0.02890
;WIDTH:0.557755
G1 X159.434 Y88.277 E0.03103
;WIDTH:0.591603
G1 X159.473 Y88.779 E0.03316
G1 X159.888 Y89.690 F4800.000
;TYPE:Solid infill
;WIDTH:0.454038
G1 F1200.000
G1 X159.285 Y89.088 E0.04142
G1 X159.285 Y89.639 E0.02678
G1 X159.715 Y90.068 E0.02949
G1 X159.715 Y90.619 E0.02678
G1 X159.285 Y90.190 E0.02949
G1 X159.285 Y90.741 E0.02678
G1 X159.715 Y91.170 E0.02949
G1 X159.715 Y91.721 E0.02678
G1 X159.285 Y91.292 E0.02949
G1 X159.285 Y91.843 E0.02678
G1 X159.715 Y92.272 E0.02949
G1 X159.715 Y92.823 E0.02678
G1 X159.285 Y92.394 E0.02949
G1 X159.285 Y92.945 E0.02678
G1 X159.715 Y93.374 E0.02949
G1 X159.715 Y93.925 E0.02678
G1 X159.285 Y93.496 E0.02949
G1 X159.285 Y94.047 E0.02678
G1 X159.715 Y94.476 E0.02949
G1 X159.715 Y95.027 E0.02678
G1 X159.285 Y94.598 E0.02949
G1 X159.285 Y95.149 E0.02678
G1 X159.715 Y95.578 E0.02949
G1 X159.715 Y96.130 E0.02678
G1 X159.285 Y95.700 E0.02949
G1 X159.285 Y96.251 E0.02678
G1 X159.715 Y96.681 E0.02949
G1 X159.715 Y97.232 E0.02678
G1 X159.285 Y96.803 E0.02949
G1 X159.285 Y97.354 E0.02678
G1 X159.715 Y97.783 E0.02949
G1 X159.715 Y98.334 E0.02678
G1 X159.285 Y97.905 E0.02949
G1 X159.285 Y98.456 E0.02678
G1 X159.715 Y98.885 E0.02949
G1 X159.715 Y99.436 E0.02678
G1 X159.285 Y99.007 E0.02949
G1 X159.285 Y99.558 E0.02678
G1 X159.715 Y99.987 E0.02949
G1 X159.715 Y100.538 E0.02678
G1 X159.285 Y100.109 E0.02949
G1 X159.285 Y100.660 E0.02678
G1 X159.715 Y101.089 E0.02949
M73 P37 R2
G1 X159.715 Y101.640 E0.02678
G1 X159.285 Y101.211 E0.02949
G1 X159.285 Y101.762 E0.02678
G1 X159.715 Y102.191 E0.02949
G1 X159.715 Y102.742 E0.02678
G1 X159.285 Y102.313 E0.02949
G1 X159.285 Y102.864 E0.02678
G1 X159.715 Y103.293 E0.02949
G1 X159.715 Y103.844 E0.02678
G1 X159.285 Y103.415 E0.02949
G1 X159.285 Y103.966 E0.02678
G1 X159.715 Y104.395 E0.02949
G1 X159.715 Y104.946 E0.02678
G1 X159.285 Y104.517 E0.02949
G1 X159.285 Y105.068 E0.02678
G1 X159.715 Y105.498 E0.02949
G1 X159.715 Y106.049 E0.02678
G1 X159.285 Y105.619 E0.02949
G1 X159.285 Y106.170 E0.02678
G1 X159.715 Y106.600 E0.02949
G1 X159.715 Y107.151 E0.02678
G1 X159.285 Y106.722 E0.02949
G1 X159.285 Y107.273 E0.02678
G1 X159.715 Y107.702 E0.02949
G1 X159.715 Y108.253 E0.02678
G1 X159.285 Y107.824 E0.02949
G1 X159.285 Y108.375 E0.02678
G1 X159.715 Y108.804 E0.02949
G1 X159.715 Y109.355 E0.02678
G1 X159.285 Y108.926 E0.02949
G1 X159.285 Y109.477 E0.02678
G1 X159.715 Y109.906 E0.02949
G1 X159.715 Y110.457 E0.02678
G1 X159.285 Y110.028 E0.02949
G1 X159.285 Y110.579 E0.02678
G1 X159.715 Y111.008 E0.02949
G1 X159.715 Y111.559 E0.02678
G1 X159.285 Y111.130 E0.02949
G1 X159.285 Y111.681 E0.02678
G1 X159.715 Y112.110 E0.02949
G1 X159.715 Y112.661 E0.02678
G1 X159.285 Y112.232 E0.02949
G1 X159.285 Y112.783 E0.02678
G1 X159.715 Y113.212 E0.02949
G1 X159.715 Y113.763 E0.02678
G1 X159.285 Y113.334 E0.02949
G1 X159.285 Y113.885 E0.02678
G1 X159.715 Y114.314 E0.02949
G1 X159.715 Y114.866 E0.02678
G1 X159.285 Y114.436 E0.02949
G1 X159.285 Y114.987 E0.02678
G1 X159.715 Y115.417 E0.02949
G1 X159.715 Y115.968 E0.02678
G1 X159.285 Y115.538 E0.02949
G1 X159.285 Y116.090 E0.02678
G1 X159.715 Y116.519 E0.02949
G1 X159.715 Y117.070 E0.02678
G1 X159.285 Y116.641 E0.02949
G1 X159.285 Y117.192 E0.02678
G1 X159.715 Y117.621 E0.02949
G1 X159.715 Y118.172 E0.02678
M73 P38 R2
G1 X159.285 Y117.743 E0.02949
G1 X159.285 Y118.294 E0.02678
G1 X159.715 Y118.723 E0.02949
G1 X159.715 Y119.274 E0.02678
